;FLAVOR:Marlin
;TIME:7575.09
;Filament used:10.7011m
;Layer Height:0.2
;MINX:83.618
;MINY:50.942
;MINZ:0.2
;MAXX:136.394
;MAXY:174.058
;MAXZ:27
;OuterWall Time:1077.47
;InnerWall Time:667.655
;Skin Time:2321.16
;Support Time:1459.54
;SkirtBrim Time:101.016
;Infill Time:452.136
;Support Infills Time:0
;Combing Time:456.745
;Retraction Time:609.18
;PrimeTower Time:430.187
;;;;;;;;;;;;;;;;;;;;;;;;;;;;;;;;;;;;;;;;;;;;;;;;;;;;;;;;;;;;;
;Creality Print GCode Generated by CXEngine
;CRSLICE_GIT_HASH:6b8d75d
;Creality Print Version : V4.3.7.6625
;CXEngine Release Time:2023-09-15 20:42:32
;Gcode Generated Time:2023-11-02 22:25:22
;----------Machine Config--------------
;Machine Name:Ender-3 V3 SE
;Machine Height:250
;Machine Width:220
;Machine Depth:220
;Material Type:PLA
;Material Name:CR-PLA_1.75
;Number of Extruders:1
;ExtruderParams[0] Nozzle Diameter:1000
;----------Profile Config---------------
;Wall Thickness:0.8
;Top/Bottom Thickness:0.8
;Out Wall Line Width:0.42
;Inner Wall Line Width:0.45
;Inital Height:200
;Wall Line Count:2
;Infill Line Distance:8
;Infill Pattern:grid
;Infill Sparse Density:10
;Infill Wipe Distance:0
;Print Temperature:205
;Bed Temperature:60
;Support Enable:false
;Support Density:15
;Support Angle:60
;Adhesion Type:autobrim
;machine is belt:false
;machine belt offset:10
;machine belt offset Y:0
;Raft Base Line Spacing:1.6
;Wait Heatup Sync:true
;Enable Ironing:false
;Material Type:PLA
;Max volumetric speed:20
;Material Diameter:1.75
;Material Density:1.24
;Filament Cost:0.3
;Filament Weight:0
;Preview Img Type:png
;Screen Size:Sermoon D3
;----------Shell Config----------------
;Outer Wall Wipe Distance:200
;Outer Inset First:false
;Infill Before Walls:false
;Infill Overlap:0.04
;Fill Gaps Between Walls:everywhere
;Minimum Infill Area:15
;Top Surface Skin Layer:0
;Top Layers:4
;Z Seam Alignment:sharpest_corner
;Seam Corner Preference:z_seam_corner_inner
;Z Seam X:110
;Z Seam Y:220
;Horizontal Expansion:0
;Top/Bottom Pattern:zigzag
;Ironing Pattern:zigzag
;Vase Model:false
;----------Support Config----------------
;Support Type:everywhere
;Support Pattern:zigzag
;Support Infill Layer Thickness:0.15
;Minimum Support Area:1
;Enable Support Roof:true
;Support Roof Thickness:0.8
;Support Roof Pattern:lines
;Connect Support Lines:0
;Connect Support ZigZags:1
;Minimum Support X/Y Distance:0.2
;Support Line Distance:2.67
; ---------PrintSpeed & Travel----------
;Enable Print Cool:true
;Avoid Printed Parts Traveling:true
;Enable Retraction:true
;Retraction Distance:0.8
;Retraction Speed:40
;Retraction Prime Speed:40
;Maximum Retraction Count:100
;Minimum Extrusion Distance Window:0.8
;Z Hop When Retracted:false
;Z Hop Height:0.2
;Retract Before Outer Wall:true

;Outer Wall Speed:60
;Inner Wall Speed:90
;Infill Speed:180
;Top/Bottom Speed:50
;Travel Speed:150
;Initial Layer Speed:30
;Skirt/Brim Speed:25
;Prime Tower Speed:60
;Outer Wall Acceleration:1000
;Inner Wall Acceleration:2000
;Infill Acceleration:2500
;Top/Bottom Acceleration:2500
;Travel Acceleration:2500
;Initial Layer Print Acceleration:500
;Initial Layer Travel Acceleration:500
;Skirt/Brim Acceleration:500
;Combing Mode:noskin
; --------SpecialModel&Mesh Fixes--------
;Union Overlapping Volum:true
;Remove All Holes:false
;Maximum Travel Resolution:0.25
;Maximum Deviation:0.05
;Maximum Model Angle:0.872767
;IS Mold Print:false
;Make Overhang Printable:false
;Enable Coasting:false
;Coasting Volumes:0.064
;Coasting Speed:0.9
;Raft AirGap:0.25
;Layer0 ZOverLap:0.13
;Adaptive Layers:0
;---------------------End of Head--------------------------
M140 S60
M105
M190 S60
M104 S205
M82 ;absolute extrusion mode
M220 S100 ;Reset Feedrate
M221 S100 ;Reset Flowrate

G28 ;Home

G92 E0 ;Reset Extruder
G1 Z2.0 F3000 ;Move Z Axis up
G1 X10.1 Y20 Z0.28 F5000.0 ;Move to start position
M109 S205.000000
G1 X10.1 Y145.0 Z0.28 F1500.0 E15 ;Draw the first line
G1 X10.4 Y145.0 Z0.28 F5000.0 ;Move to side a little
G1 X10.4 Y20 Z0.28 F1500.0 E30 ;Draw the second line
G92 E0  ;Reset Extruder
G1 E-1.0000 F1800 ;Retract a bit
G1 Z2.0 F3000 ;Move Z Axis up
G1 E0.0000 F1800 

G92 E0
G92 E0
G1 F2400 E-0.8
;LAYER_COUNT:135

;LAYER:0
M106 S0
M204 S500
G0 F4800 X100.71 Y72.37 Z0.2
;TYPE:SKIRT
G1 F2400 E0
G1 F1500 X100.71 Y82.63 E0.3941
G1 X100.87 Y82.79 E0.40279
G1 X121.13 Y82.79 E1.18099
G1 X121.29 Y82.63 E1.18969
G1 X121.29 Y72.37 E1.58378
G1 X121.13 Y72.21 E1.59247
G1 X100.87 Y72.21 E2.37068
G1 X100.71 Y72.37 E2.37937
G0 F4800 X101.172 Y72.672
G1 F1500 X101.172 Y82.328 E2.75027
G1 X120.828 Y82.328 E3.50527
G1 X120.828 Y72.672 E3.87617
G1 X101.172 Y72.672 E4.63118
G0 F4800 X101.634 Y73.134
G1 F1500 X101.634 Y81.866 E4.96658
G1 X120.366 Y81.866 E5.68609
G1 X120.366 Y73.134 E6.0215
G1 X101.634 Y73.134 E6.74101
G0 F4800 X102.558 Y74.058
G1 F1500 X102.558 Y80.942 E7.00543
G1 X119.442 Y80.942 E7.65396
G1 X119.442 Y74.058 E7.91839
G1 X102.558 Y74.058 E8.56692
G0 F4800 X102.096 Y73.596
G1 F1500 X102.096 Y81.404 E8.86683
G1 X119.904 Y81.404 E9.55085
G1 X119.904 Y73.596 E9.85076
G1 X102.096 Y73.596 E10.53479
;;retract;;
G1 F2400 E9.97479
G1 X103.927 Y74.399 E9.74679
G1 F2400 E9.73479
G0 F4800 X102.096 Y73.596
G0 X90.365 Y141.293
G1 F2400 E10.53479
G1 F1500 X90.05 Y141.552 E10.55045
G1 X89.792 Y141.867 E10.56609
G1 X89.6 Y142.226 E10.58173
G1 X89.482 Y142.616 E10.59738
G1 X89.442 Y143.021 E10.61301
G1 X89.442 Y171.979 E11.72532
G1 X89.482 Y172.386 E11.74103
G1 X89.601 Y172.776 E11.75669
G1 X89.793 Y173.135 E11.77233
G1 X90.052 Y173.45 E11.78799
G1 X90.367 Y173.708 E11.80363
G1 X90.726 Y173.9 E11.81927
G1 X91.116 Y174.018 E11.83492
G1 X91.521 Y174.058 E11.85055
G1 X100.479 Y174.058 E12.19464
G1 X100.886 Y174.018 E12.21034
G1 X101.276 Y173.899 E12.22601
G1 X101.635 Y173.707 E12.24164
G1 X101.95 Y173.448 E12.25731
G1 X102.208 Y173.133 E12.27295
G1 X102.4 Y172.774 E12.28859
G1 X102.518 Y172.384 E12.30424
G1 X102.558 Y171.979 E12.31987
G1 X102.558 Y168.279 E12.46199
G1 X102.518 Y167.872 E12.4777
G1 X102.397 Y167.479 E12.49349
G1 X101.898 Y167.479 E12.51266
G1 X102.051 Y167.902 E12.52994
G1 X102.096 Y168.279 E12.54452
G1 X102.096 Y171.979 E12.68664
G1 X102.056 Y172.336 E12.70044
G1 X101.938 Y172.675 E12.71423
G1 X101.749 Y172.98 E12.72801
G1 X101.497 Y173.236 E12.74181
G1 X101.194 Y173.429 E12.75561
G1 X100.856 Y173.551 E12.76941
G1 X100.479 Y173.596 E12.78399
G1 X91.521 Y173.596 E13.12808
G1 X91.164 Y173.556 E13.14188
G1 X90.825 Y173.438 E13.15567
G1 X90.52 Y173.249 E13.16945
G1 X90.264 Y172.997 E13.18325
G1 X90.071 Y172.694 E13.19705
G1 X89.949 Y172.356 E13.21085
G1 X89.904 Y171.979 E13.22543
G1 X89.904 Y143.021 E14.33774
G1 X89.944 Y142.664 E14.35153
G1 X90.062 Y142.325 E14.36532
G1 X90.251 Y142.02 E14.3791
G1 X90.503 Y141.764 E14.3929
G1 X90.806 Y141.571 E14.4067
G1 X91.144 Y141.449 E14.4205
G1 X91.521 Y141.404 E14.43509
G1 X96.543 Y141.404 E14.62799
G1 X96.9 Y141.444 E14.64179
G1 X97.302 Y141.584 E14.65814
G1 X97.279 Y141.082 E14.67744
G1 X96.948 Y140.982 E14.69072
G1 X96.543 Y140.942 E14.70635
G1 X91.521 Y140.942 E14.89925
G1 X91.114 Y140.982 E14.91496
G1 X90.724 Y141.101 E14.93062
G1 X90.365 Y141.293 E14.94626
G0 F4800 X90.95 Y142.017
G1 F1500 X90.708 Y142.2 E14.95792
G1 X90.523 Y142.44 E14.96956
G1 X90.406 Y142.72 E14.98121
G1 X90.366 Y143.021 E14.99288
G1 X90.366 Y171.979 E16.10518
G1 X90.403 Y172.269 E16.11641
G1 X90.517 Y172.55 E16.12806
G1 X90.7 Y172.792 E16.13971
G1 X90.94 Y172.977 E16.15135
G1 X91.22 Y173.094 E16.16301
G1 X91.521 Y173.134 E16.17467
G1 X100.479 Y173.134 E16.51876
G1 X100.769 Y173.097 E16.52999
G1 X101.05 Y172.983 E16.54163
G1 X101.292 Y172.8 E16.55329
G1 X101.477 Y172.56 E16.56493
G1 X101.594 Y172.28 E16.57658
G1 X101.634 Y171.979 E16.58825
G1 X101.634 Y168.279 E16.73037
G1 X101.597 Y167.989 E16.7416
G1 X101.483 Y167.708 E16.75324
G1 X101.31 Y167.479 E16.76427
G1 X98.479 Y167.479 E16.87301
G1 X97.329 Y142.181 E17.84573
G1 X97.124 Y142.023 E17.85568
G1 X96.844 Y141.906 E17.86733
G1 X96.543 Y141.866 E17.87899
G1 X91.521 Y141.866 E18.07189
G1 X91.231 Y141.903 E18.08312
G1 X90.95 Y142.017 E18.09477
G0 F4800 X91.159 Y142.43
G1 F1500 X90.982 Y142.585 E18.10381
G1 X90.828 Y143.021 E18.12157
G1 X90.828 Y172.087 E19.23802
G1 X90.977 Y172.458 E19.25338
G1 X91.362 Y172.672 E19.2703
G1 X100.587 Y172.672 E19.62464
G1 X100.958 Y172.523 E19.64
G1 X101.172 Y172.138 E19.65692
G1 X101.172 Y168.171 E19.80929
G1 X101.023 Y167.8 E19.82465
G1 X100.638 Y167.586 E19.84157
G1 X98.354 Y167.586 E19.9293
G1 X97.235 Y142.989 E20.87507
G1 X97.101 Y142.55 E20.8927
G1 X96.702 Y142.328 E20.91024
G1 X91.413 Y142.328 E21.1134
G1 X91.159 Y142.43 E21.12391
G0 F4800 X91.521 Y143.021
G1 F1500 X91.521 Y171.979 E22.23621
G1 X100.479 Y171.979 E22.5803
G1 X100.479 Y168.279 E22.72242
G1 X97.715 Y168.279 E22.82859
G1 X97.679 Y167.479 E22.85935
G1 X97.656 Y167.479 E22.86023
G1 X96.543 Y143.021 E23.80066
G1 X91.521 Y143.021 E23.99356
G0 F4800 X91.454 Y142.79
G1 F1500 X91.29 Y142.924 E24.00169
G1 X91.29 Y172.046 E25.1203
G1 X91.424 Y172.21 E25.12843
G1 X100.546 Y172.21 E25.47882
G1 X100.71 Y172.076 E25.48695
G1 X100.71 Y168.212 E25.63537
G1 X100.576 Y168.048 E25.64351
G1 X97.936 Y168.048 E25.74491
G1 X97.91 Y167.469 E25.76717
G1 X97.883 Y167.379 E25.77078
G1 X96.771 Y142.95 E26.7101
G1 X96.64 Y142.79 E26.71804
G1 X91.454 Y142.79 E26.91724
;;retract;;
G1 F2400 E26.35724
G1 X91.443 Y144.79 E26.12924
G1 F2400 E26.11724
G0 F4800 X91.454 Y142.356
G0 X91.521 Y124.058
G1 F2400 E26.91724
G1 F1500 X95.586 Y124.058 E27.07338
G1 X96.088 Y123.996 E27.09281
G1 X96.487 Y123.851 E27.10911
G1 X96.462 Y123.355 E27.12819
G1 X96.037 Y123.532 E27.14587
G1 X95.586 Y123.596 E27.16337
G1 X91.521 Y123.596 E27.31951
G1 X91.164 Y123.556 E27.33331
G1 X90.825 Y123.438 E27.3471
G1 X90.52 Y123.249 E27.36088
G1 X90.264 Y122.997 E27.37468
G1 X90.071 Y122.694 E27.38848
G1 X89.949 Y122.356 E27.40228
G1 X89.904 Y121.979 E27.41686
G1 X89.904 Y63.021 E29.6815
G1 X89.944 Y62.664 E29.6953
G1 X90.062 Y62.325 E29.70908
G1 X90.251 Y62.02 E29.72287
G1 X90.503 Y61.764 E29.73666
G1 X90.806 Y61.571 E29.75046
G1 X91.144 Y61.449 E29.76427
G1 X91.521 Y61.404 E29.77885
G1 X99.904 Y61.404 E30.10085
G1 X99.904 Y53.021 E30.42285
G1 X99.944 Y52.664 E30.43665
G1 X100.062 Y52.325 E30.45043
G1 X100.251 Y52.02 E30.46422
G1 X100.503 Y51.764 E30.47801
G1 X100.806 Y51.571 E30.49181
G1 X101.144 Y51.449 E30.50562
G1 X101.521 Y51.404 E30.5202
G1 X120.479 Y51.404 E31.24839
G1 X120.836 Y51.444 E31.26219
G1 X121.175 Y51.562 E31.27598
G1 X121.48 Y51.751 E31.28976
G1 X121.736 Y52.003 E31.30356
G1 X121.929 Y52.306 E31.31736
G1 X122.051 Y52.644 E31.33116
G1 X122.096 Y53.021 E31.34575
G1 X122.096 Y61.404 E31.66775
G1 X130.479 Y61.404 E31.98975
G1 X130.836 Y61.444 E32.00354
G1 X131.175 Y61.562 E32.01733
G1 X131.48 Y61.751 E32.03111
G1 X131.736 Y62.003 E32.04491
G1 X131.929 Y62.306 E32.05871
G1 X132.051 Y62.644 E32.07251
G1 X132.096 Y63.021 E32.0871
G1 X132.096 Y161.979 E35.88817
G1 X132.056 Y162.336 E35.90197
G1 X131.938 Y162.675 E35.91576
G1 X131.749 Y162.98 E35.92954
G1 X131.497 Y163.236 E35.94334
G1 X131.194 Y163.429 E35.95713
G1 X130.856 Y163.551 E35.97094
G1 X130.479 Y163.596 E35.98552
G1 X122.594 Y163.596 E36.28839
G1 X122.237 Y163.556 E36.30219
G1 X121.715 Y163.374 E36.32342
G1 X121.692 Y163.868 E36.34242
G1 X122.189 Y164.018 E36.36236
G1 X122.594 Y164.058 E36.37799
G1 X130.479 Y164.058 E36.68086
G1 X130.886 Y164.018 E36.69657
G1 X131.276 Y163.899 E36.71223
G1 X131.635 Y163.707 E36.72787
G1 X131.95 Y163.448 E36.74354
G1 X132.208 Y163.133 E36.75918
G1 X132.4 Y162.774 E36.77481
G1 X132.518 Y162.384 E36.79046
G1 X132.558 Y161.979 E36.8061
G1 X132.558 Y63.021 E40.60717
G1 X132.518 Y62.614 E40.62288
G1 X132.399 Y62.224 E40.63854
G1 X132.207 Y61.865 E40.65418
G1 X131.948 Y61.55 E40.66984
G1 X131.633 Y61.292 E40.68548
G1 X131.274 Y61.1 E40.70112
G1 X130.884 Y60.982 E40.71677
G1 X130.479 Y60.942 E40.7324
G1 X122.558 Y60.942 E41.03666
G1 X122.558 Y53.021 E41.34091
G1 X122.518 Y52.614 E41.35662
G1 X122.399 Y52.224 E41.37228
G1 X122.207 Y51.865 E41.38792
G1 X121.948 Y51.55 E41.40358
G1 X121.633 Y51.292 E41.41922
G1 X121.274 Y51.1 E41.43486
G1 X120.884 Y50.982 E41.45051
G1 X120.479 Y50.942 E41.46614
G1 X101.521 Y50.942 E42.19434
G1 X101.114 Y50.982 E42.21005
G1 X100.724 Y51.101 E42.22571
G1 X100.365 Y51.293 E42.24135
G1 X100.05 Y51.552 E42.25701
G1 X99.792 Y51.867 E42.27265
G1 X99.6 Y52.226 E42.28829
G1 X99.482 Y52.616 E42.30394
G1 X99.442 Y53.021 E42.31957
G1 X99.442 Y60.942 E42.62382
G1 X91.521 Y60.942 E42.92808
G1 X91.114 Y60.982 E42.94379
G1 X90.724 Y61.101 E42.95945
G1 X90.365 Y61.293 E42.97509
G1 X90.05 Y61.552 E42.99075
G1 X89.792 Y61.867 E43.00639
G1 X89.6 Y62.226 E43.02203
G1 X89.482 Y62.616 E43.03768
G1 X89.442 Y63.021 E43.05331
G1 X89.442 Y121.979 E45.31794
G1 X89.482 Y122.386 E45.33365
G1 X89.601 Y122.776 E45.34932
G1 X89.793 Y123.135 E45.36495
G1 X90.052 Y123.45 E45.38062
G1 X90.367 Y123.708 E45.39626
G1 X90.726 Y123.9 E45.4119
G1 X91.116 Y124.018 E45.42755
G1 X91.521 Y124.058 E45.44318
G0 F4800 X91.521 Y123.134
G1 F1500 X95.586 Y123.134 E45.59932
G1 X95.928 Y123.082 E45.61261
G1 X96.204 Y122.955 E45.62428
G1 X96.432 Y122.764 E45.6357
G1 X96.321 Y120.521 E45.72196
G1 X123.678 Y120.521 E46.77277
G1 X122.147 Y154.215 E48.06833
G1 X121.743 Y162.769 E48.39726
G1 X122.013 Y162.977 E48.41035
G1 X122.293 Y163.094 E48.42201
G1 X122.594 Y163.134 E48.43367
G1 X130.479 Y163.134 E48.73654
G1 X130.769 Y163.097 E48.74777
G1 X131.05 Y162.983 E48.75942
G1 X131.292 Y162.8 E48.77107
G1 X131.477 Y162.56 E48.78271
G1 X131.594 Y162.28 E48.79437
G1 X131.634 Y161.979 E48.80603
G1 X131.634 Y63.021 E52.6071
G1 X131.597 Y62.731 E52.61833
G1 X131.483 Y62.45 E52.62998
G1 X131.3 Y62.208 E52.64163
G1 X131.06 Y62.023 E52.65327
G1 X130.78 Y61.906 E52.66493
G1 X130.479 Y61.866 E52.67659
G1 X121.634 Y61.866 E53.01634
G1 X121.634 Y53.021 E53.35608
G1 X121.597 Y52.731 E53.36731
G1 X121.483 Y52.45 E53.37896
G1 X121.3 Y52.208 E53.39061
G1 X121.06 Y52.023 E53.40225
G1 X120.78 Y51.906 E53.41391
G1 X120.479 Y51.866 E53.42557
G1 X101.521 Y51.866 E54.15377
G1 X101.231 Y51.903 E54.165
G1 X100.95 Y52.017 E54.17665
G1 X100.708 Y52.2 E54.1883
G1 X100.523 Y52.44 E54.19994
G1 X100.406 Y52.72 E54.2116
G1 X100.366 Y53.021 E54.22326
G1 X100.366 Y61.866 E54.563
G1 X91.521 Y61.866 E54.90275
G1 X91.231 Y61.903 E54.91398
G1 X90.95 Y62.017 E54.92563
G1 X90.708 Y62.2 E54.93728
G1 X90.523 Y62.44 E54.94892
G1 X90.406 Y62.72 E54.96058
G1 X90.366 Y63.021 E54.97224
G1 X90.366 Y121.979 E57.23687
G1 X90.403 Y122.269 E57.2481
G1 X90.517 Y122.55 E57.25975
G1 X90.7 Y122.792 E57.27141
G1 X90.94 Y122.977 E57.28304
G1 X91.22 Y123.094 E57.2947
G1 X91.521 Y123.134 E57.30636
G0 F4800 X91.362 Y122.672
G1 F1500 X95.711 Y122.672 E57.47341
G1 X96.09 Y122.5 E57.4894
G1 X96.285 Y122.105 E57.50632
G1 X96.206 Y120.414 E57.57134
G1 X123.79 Y120.414 E58.63087
G1 X121.896 Y162.075 E60.23276
G1 X122.05 Y162.458 E60.24862
G1 X122.435 Y162.672 E60.26554
G1 X130.587 Y162.672 E60.57867
G1 X130.841 Y162.57 E60.58918
G1 X131.018 Y162.415 E60.59822
G1 X131.172 Y161.979 E60.61598
G1 X131.172 Y62.913 E64.4212
G1 X131.023 Y62.542 E64.43656
G1 X130.638 Y62.328 E64.45347
G1 X121.172 Y62.328 E64.81707
G1 X121.172 Y52.913 E65.17871
G1 X121.07 Y52.659 E65.18923
G1 X120.915 Y52.482 E65.19826
G1 X120.479 Y52.328 E65.21602
G1 X101.413 Y52.328 E65.94837
G1 X101.042 Y52.477 E65.96372
G1 X100.828 Y52.862 E65.98064
G1 X100.828 Y62.328 E66.34424
G1 X91.413 Y62.328 E66.70588
G1 X91.159 Y62.43 E66.71639
G1 X90.982 Y62.585 E66.72543
G1 X90.828 Y63.021 E66.74319
G1 X90.828 Y122.087 E69.01197
G1 X90.977 Y122.458 E69.02733
G1 X91.362 Y122.672 E69.04425
G0 F4800 X91.424 Y122.21
G1 F1500 X95.659 Y122.21 E69.20692
G1 X95.822 Y122.066 E69.21528
G1 X95.722 Y119.952 E69.29657
G1 X124.273 Y119.952 E70.39324
G1 X122.36 Y162.042 E72.01162
G1 X122.497 Y162.21 E72.01995
G1 X130.546 Y162.21 E72.32912
G1 X130.71 Y162.076 E72.33726
G1 X130.71 Y62.954 E76.14463
G1 X130.576 Y62.79 E76.15276
G1 X120.87 Y62.79 E76.52558
G1 X120.71 Y62.63 E76.53427
G1 X120.71 Y52.954 E76.90594
G1 X120.576 Y52.79 E76.91407
G1 X101.454 Y52.79 E77.64856
G1 X101.29 Y52.924 E77.6567
