;FLAVOR:Marlin
;TIME:2343.04
;Filament used:3.17263m
;Layer Height:0.2
;MINX:92.856
;MINY:79.606
;MINZ:0.2
;MAXX:127.133
;MAXY:132.769
;MAXZ:28
;OuterWall Time:565.376
;InnerWall Time:386.931
;Skin Time:547.807
;Support Time:110.923
;SkirtBrim Time:0
;Infill Time:197.039
;Support Infills Time:0
;Combing Time:233.783
;Retraction Time:298.21
;PrimeTower Time:2.97158
;;;;;;;;;;;;;;;;;;;;;;;;;;;;;;;;;;;;;;;;;;;;;;;;;;;;;;;;;;;;;;;;;;;
;Creality Print GCode Generated by CXEngine
;CRSLICE_GIT_HASH:6b8d75d
;Creality Print Version : V4.3.7.6625
;CXEngine Release Time:2023-09-15 20:42:32
;Gcode Generated Time:2023-11-02 22:24:51
;----------Machine Config--------------
;Machine Name:Ender-3 V3 SE
;Machine Height:250
;Machine Width:220
;Machine Depth:220
;Material Type:PLA
;Material Name:CR-PLA_1.75
;Number of Extruders:1
;ExtruderParams[0] Nozzle Diameter:1000
;----------Profile Config---------------
;Wall Thickness:0.8
;Top/Bottom Thickness:0.8
;Out Wall Line Width:0.42
;Inner Wall Line Width:0.45
;Inital Height:200
;Wall Line Count:2
;Infill Line Distance:8
;Infill Pattern:grid
;Infill Sparse Density:10
;Infill Wipe Distance:0
;Print Temperature:205
;Bed Temperature:60
;Support Enable:false
;Support Density:15
;Support Angle:60
;Adhesion Type:autobrim
;machine is belt:false
;machine belt offset:10
;machine belt offset Y:0
;Raft Base Line Spacing:1.6
;Wait Heatup Sync:true
;Enable Ironing:false
;Material Type:PLA
;Max volumetric speed:20
;Material Diameter:1.75
;Material Density:1.24
;Filament Cost:0.3
;Filament Weight:0
;Preview Img Type:png
;Screen Size:Sermoon D3
;----------Shell Config----------------
;Outer Wall Wipe Distance:200
;Outer Inset First:false
;Infill Before Walls:false
;Infill Overlap:0.04
;Fill Gaps Between Walls:everywhere
;Minimum Infill Area:15
;Top Surface Skin Layer:0
;Top Layers:4
;Z Seam Alignment:sharpest_corner
;Seam Corner Preference:z_seam_corner_inner
;Z Seam X:110
;Z Seam Y:220
;Horizontal Expansion:0
;Top/Bottom Pattern:zigzag
;Ironing Pattern:zigzag
;Vase Model:false
;----------Support Config----------------
;Support Type:everywhere
;Support Pattern:zigzag
;Support Infill Layer Thickness:0.15
;Minimum Support Area:1
;Enable Support Roof:true
;Support Roof Thickness:0.8
;Support Roof Pattern:lines
;Connect Support Lines:0
;Connect Support ZigZags:1
;Minimum Support X/Y Distance:0.2
;Support Line Distance:2.67
; ---------PrintSpeed & Travel----------
;Enable Print Cool:true
;Avoid Printed Parts Traveling:true
;Enable Retraction:true
;Retraction Distance:0.8
;Retraction Speed:40
;Retraction Prime Speed:40
;Maximum Retraction Count:100
;Minimum Extrusion Distance Window:0.8
;Z Hop When Retracted:false
;Z Hop Height:0.2
;Retract Before Outer Wall:true

;Outer Wall Speed:60
;Inner Wall Speed:90
;Infill Speed:180
;Top/Bottom Speed:50
;Travel Speed:150
;Initial Layer Speed:30
;Skirt/Brim Speed:25
;Prime Tower Speed:60
;Outer Wall Acceleration:1000
;Inner Wall Acceleration:2000
;Infill Acceleration:2500
;Top/Bottom Acceleration:2500
;Travel Acceleration:2500
;Initial Layer Print Acceleration:500
;Initial Layer Travel Acceleration:500
;Skirt/Brim Acceleration:500
;Combing Mode:noskin
; --------SpecialModel&Mesh Fixes--------
;Union Overlapping Volum:true
;Remove All Holes:false
;Maximum Travel Resolution:0.25
;Maximum Deviation:0.05
;Maximum Model Angle:0.872767
;IS Mold Print:false
;Make Overhang Printable:false
;Enable Coasting:false
;Coasting Volumes:0.064
;Coasting Speed:0.9
;Raft AirGap:0.25
;Layer0 ZOverLap:0.13
;Adaptive Layers:0
;---------------------End of Head--------------------------
M140 S60
M105
M190 S60
M104 S205
M82 ;absolute extrusion mode
M220 S100 ;Reset Feedrate
M221 S100 ;Reset Flowrate

G28 ;Home

G92 E0 ;Reset Extruder
G1 Z2.0 F3000 ;Move Z Axis up
G1 X10.1 Y20 Z0.28 F5000.0 ;Move to start position
M109 S205.000000
G1 X10.1 Y145.0 Z0.28 F1500.0 E15 ;Draw the first line
G1 X10.4 Y145.0 Z0.28 F5000.0 ;Move to side a little
G1 X10.4 Y20 Z0.28 F1500.0 E30 ;Draw the second line
G92 E0  ;Reset Extruder
G1 E-1.0000 F1800 ;Retract a bit
G1 Z2.0 F3000 ;Move Z Axis up
G1 E0.0000 F1800 

G92 E0
G92 E0
G1 F2400 E-0.8
;LAYER_COUNT:140

;LAYER:0
M106 S0
M204 S500
;MESH:0_0
G0 F4800 X94.231 Y87.731 Z0.2
;TYPE:WALL-INNER
G1 F2400 E0
G1 F1800 X125.77 Y87.731 E1.29798
G1 X125.77 Y116.495 E2.48175
G1 X125.736 Y117.536 E2.52461
G1 X125.633 Y118.563 E2.56709
G1 X125.463 Y119.602 E2.61042
G1 X125.232 Y120.58 E2.65177
G1 X124.942 Y121.54 E2.69305
G1 X124.56 Y122.554 E2.73764
G1 X124.138 Y123.482 E2.77959
G1 X123.656 Y124.386 E2.82176
G1 X123.108 Y125.265 E2.86438
G1 X122.51 Y126.1 E2.90665
G1 X121.862 Y126.894 E2.94883
G1 X121.148 Y127.652 E2.99169
G1 X120.394 Y128.358 E3.0342
G1 X119.6 Y129.01 E3.07648
G1 X118.754 Y129.615 E3.11928
G1 X117.88 Y130.159 E3.16165
G1 X116.967 Y130.644 E3.2042
G1 X116.041 Y131.067 E3.24609
G1 X115.031 Y131.443 E3.29045
G1 X114.071 Y131.734 E3.33173
G1 X113.087 Y131.964 E3.37332
G1 X112.049 Y132.135 E3.41661
G1 X111.021 Y132.236 E3.45912
G1 X109.995 Y132.269 E3.50137
G1 X108.968 Y132.236 E3.54366
G1 X107.943 Y132.134 E3.58605
G1 X106.903 Y131.964 E3.62942
G1 X105.918 Y131.731 E3.67107
G1 X104.968 Y131.445 E3.7119
G1 X103.95 Y131.062 E3.75667
G1 X103.025 Y130.641 E3.79849
G1 X102.113 Y130.155 E3.84102
G1 X101.237 Y129.611 E3.88346
G1 X100.398 Y129.007 E3.926
G1 X99.6 Y128.353 E3.96846
G1 X98.845 Y127.646 E4.01103
G1 X98.141 Y126.894 E4.05343
G1 X97.49 Y126.099 E4.09571
G1 X96.884 Y125.254 E4.13851
G1 X96.34 Y124.378 E4.18095
G1 X95.858 Y123.474 E4.22311
G1 X95.434 Y122.544 E4.26517
G1 X95.059 Y121.539 E4.30932
G1 X94.768 Y120.581 E4.35052
G1 X94.537 Y119.592 E4.39232
G1 X94.366 Y118.556 E4.43553
G1 X94.264 Y117.53 E4.47797
G1 X94.231 Y116.489 E4.52083
G1 X94.231 Y87.731 E5.70435
;;retract;;
G1 F2400 E5.14435
G1 X96.231 Y87.731 E4.91635
G1 F2400 E4.90435
G0 F4800 X93.752 Y87.252
;TYPE:WALL-OUTER
G1 F2400 E5.70435
G1 F1800 X126.248 Y87.252 E6.92759
G1 X126.248 Y116.503 E8.02868
G1 X126.213 Y117.568 E8.06879
G1 X126.108 Y118.626 E8.10881
G1 X125.932 Y119.696 E8.14963
G1 X125.695 Y120.704 E8.18861
G1 X125.395 Y121.694 E8.22755
G1 X125.003 Y122.737 E8.26949
G1 X124.568 Y123.694 E8.30906
G1 X124.071 Y124.625 E8.34879
G1 X123.506 Y125.531 E8.38898
G1 X122.89 Y126.391 E8.4288
G1 X122.222 Y127.21 E8.46859
G1 X121.486 Y127.991 E8.50898
G1 X120.71 Y128.718 E8.54901
G1 X119.891 Y129.39 E8.58889
G1 X119.02 Y130.013 E8.6292
G1 X118.12 Y130.574 E8.66912
G1 X117.179 Y131.074 E8.70923
G1 X116.225 Y131.509 E8.7487
G1 X115.184 Y131.897 E8.79052
G1 X114.195 Y132.197 E8.82942
G1 X113.18 Y132.433 E8.86865
G1 X112.111 Y132.61 E8.90944
G1 X111.052 Y132.713 E8.94949
G1 X109.995 Y132.748 E8.9893
G1 X108.936 Y132.713 E9.02919
G1 X107.88 Y132.609 E9.06913
G1 X106.809 Y132.433 E9.10999
G1 X105.794 Y132.194 E9.14924
G1 X104.814 Y131.898 E9.18777
G1 X103.767 Y131.505 E9.22987
G1 X102.813 Y131.071 E9.26932
G1 X101.874 Y130.57 E9.30939
G1 X100.971 Y130.009 E9.3494
G1 X100.106 Y129.387 E9.38951
G1 X99.284 Y128.713 E9.42952
G1 X98.507 Y127.985 E9.4696
G1 X97.781 Y127.21 E9.50958
G1 X97.11 Y126.39 E9.54946
G1 X96.486 Y125.52 E9.58976
G1 X95.925 Y124.618 E9.62975
G1 X95.428 Y123.686 E9.66951
G1 X94.992 Y122.728 E9.70913
G1 X94.605 Y121.692 E9.75076
G1 X94.305 Y120.705 E9.78959
G1 X94.068 Y119.686 E9.82897
G1 X93.891 Y118.619 E9.86969
G1 X93.787 Y117.561 E9.9097
G1 X93.752 Y116.497 E9.94978
G1 X93.752 Y87.252 E11.05064
G0 F4800 X93.952 Y87.252
;;retract;;
G1 F2400 E10.49064
G1 X95.952 Y87.252 E10.26264
G1 F2400 E10.25064
G0 F4800 X94.401 Y87.901
G0 X94.478 Y111.243
G0 X103.211 Y111.913
G0 X103.65 Y111.243
G1 F2400 E11.05064
G0 F4800 X103.781 Y111.31
;TYPE:WALL-INNER
G1 F1800 X104.224 Y110.651 E11.08332
G1 X104.724 Y110.058 E11.11524
G1 X105.288 Y109.516 E11.14743
G1 X105.973 Y108.995 E11.18285
G1 X106.641 Y108.598 E11.21483
G1 X107.356 Y108.272 E11.24717
G1 X108.027 Y108.044 E11.27634
G1 X108.819 Y107.866 E11.30974
G1 X109.573 Y107.784 E11.34096
G1 X110.427 Y107.784 E11.3761
G1 X111.209 Y107.872 E11.40849
G1 X111.935 Y108.032 E11.43908
G1 X112.708 Y108.297 E11.47271
G1 X113.424 Y108.633 E11.50526
G1 X114.023 Y108.993 E11.53403
G1 X114.652 Y109.465 E11.56639
G1 X115.225 Y110.004 E11.59876
G1 X115.776 Y110.651 E11.63374
G1 X116.219 Y111.31 E11.66642
G1 X116.546 Y111.93 E11.69527
G1 X116.839 Y112.654 E11.72741
G1 X117.07 Y113.495 E11.7633
G1 X117.192 Y114.252 E11.79486
G1 X117.231 Y114.997 E11.82556
G1 X117.192 Y115.745 E11.85639
G1 X117.069 Y116.508 E11.88819
G1 X116.853 Y117.309 E11.92233
G1 X116.548 Y118.066 E11.95592
G1 X116.219 Y118.69 E11.98495
G1 X115.771 Y119.356 E12.01799
G1 X115.278 Y119.941 E12.04947
G1 X114.675 Y120.517 E12.08379
G1 X114.028 Y121.004 E12.11712
G1 X113.427 Y121.366 E12.14599
G1 X112.711 Y121.702 E12.17854
G1 X111.951 Y121.963 E12.21161
G1 X111.174 Y122.135 E12.24436
G1 X110.394 Y122.219 E12.27665
G1 X109.605 Y122.219 E12.30912
G1 X108.867 Y122.141 E12.33966
G1 X108.044 Y121.962 E12.37432
G1 X107.292 Y121.703 E12.40705
G1 X106.644 Y121.403 E12.43644
G1 X105.963 Y120.999 E12.46903
G1 X105.325 Y120.517 E12.50194
G1 X104.744 Y119.965 E12.53492
G1 X104.269 Y119.408 E12.56505
G1 X103.781 Y118.69 E12.60077
G1 X103.445 Y118.051 E12.63048
G1 X103.147 Y117.308 E12.66343
G1 X102.93 Y116.505 E12.69766
G1 X102.815 Y115.81 E12.72665
G1 X102.771 Y115.041 E12.75835
G1 X102.817 Y114.179 E12.79388
G1 X102.93 Y113.496 E12.82237
G1 X103.161 Y112.654 E12.8583
G1 X103.454 Y111.93 E12.89045
G1 X103.781 Y111.31 E12.91929
;;retract;;
G1 F2400 E12.35929
G1 X104.724 Y110.058 E12.18066
G1 X105.036 Y109.758 E12.13129
G1 F2400 E12.11929
G0 F4800 X104.218 Y111.511
;TYPE:WALL-OUTER
G1 F2400 E12.91929
G1 F1800 X104.635 Y110.9 E12.94714
G1 X105.088 Y110.368 E12.97344
G1 X105.637 Y109.846 E13.00196
G1 X106.199 Y109.419 E13.02853
G1 X106.842 Y109.032 E13.05678
G1 X107.487 Y108.734 E13.08352
G1 X108.205 Y108.49 E13.11207
G1 X108.902 Y108.337 E13.13893
G1 X109.624 Y108.259 E13.16627
G1 X110.376 Y108.259 E13.19457
G1 X111.107 Y108.339 E13.22225
G1 X111.807 Y108.493 E13.24923
G1 X112.507 Y108.731 E13.27707
G1 X113.155 Y109.031 E13.30395
G1 X113.797 Y109.417 E13.33214
G1 X114.363 Y109.846 E13.35888
G1 X114.912 Y110.368 E13.38739
G1 X115.365 Y110.9 E13.4137
G1 X115.782 Y111.511 E13.44154
G1 X116.133 Y112.175 E13.46982
G1 X116.395 Y112.831 E13.49641
G1 X116.598 Y113.574 E13.5254
G1 X116.714 Y114.278 E13.55226
G1 X116.752 Y115.009 E13.57981
G1 X116.711 Y115.745 E13.60756
G1 X116.598 Y116.427 E13.63358
G1 X116.395 Y117.169 E13.66254
G1 X116.135 Y117.821 E13.68896
G1 X115.782 Y118.489 E13.7174
G1 X115.366 Y119.098 E13.74516
G1 X114.906 Y119.639 E13.77189
G1 X114.363 Y120.154 E13.80007
G1 X113.781 Y120.594 E13.82753
G1 X113.18 Y120.956 E13.85394
G1 X112.49 Y121.275 E13.88256
G1 X111.795 Y121.51 E13.91017
G1 X111.083 Y121.665 E13.9376
G1 X110.365 Y121.742 E13.96478
G1 X109.624 Y121.741 E13.99268
G1 X108.893 Y121.661 E14.02036
G1 X108.205 Y121.51 E14.04687
G1 X107.493 Y121.269 E14.07517
G1 X106.845 Y120.969 E14.10205
G1 X106.216 Y120.593 E14.12963
G1 X105.63 Y120.148 E14.15733
G1 X105.087 Y119.631 E14.18555
G1 X104.634 Y119.098 E14.21189
G1 X104.218 Y118.489 E14.23965
G1 X103.865 Y117.821 E14.26809
G1 X103.605 Y117.169 E14.29451
G1 X103.402 Y116.426 E14.3235
G1 X103.288 Y115.743 E14.34957
G1 X103.248 Y115.015 E14.37702
G1 X103.286 Y114.283 E14.40461
G1 X103.407 Y113.551 E14.43254
G1 X103.605 Y112.831 E14.46064
G1 X103.867 Y112.175 E14.48723
G1 X104.218 Y111.511 E14.51551
G0 F4800 X104.33 Y111.346
;;retract;;
G1 F2400 E13.95551
G1 X105.088 Y110.368 E13.81449
G1 X105.637 Y109.846 E13.72819
G1 X105.641 Y109.843 E13.72751
G1 F2400 E13.71551
G0 F4800 X103.77 Y110.965
G0 X104.107 Y110.562
G1 F2400 E14.51551
G0 F4800 X103.859 Y110.374
;TYPE:SKIN
G1 F1800 X104.372 Y109.764 E14.54612
G1 X105.026 Y109.133 E14.58103
G1 X105.63 Y108.674 E14.61017
G1 X106.426 Y108.193 E14.64589
G1 X107.211 Y107.837 E14.679
G1 X107.927 Y107.596 E14.70802
G1 X108.768 Y107.407 E14.74113
G1 X109.526 Y107.327 E14.7704
G1 X110.477 Y107.327 E14.80693
G1 X111.3 Y107.421 E14.83875
G1 X112.09 Y107.6 E14.86987
G1 X112.799 Y107.839 E14.8986
G1 X113.572 Y108.193 E14.93126
G1 X114.362 Y108.668 E14.96667
G1 X114.993 Y109.149 E14.99715
G1 X115.626 Y109.762 E15.03099
G1 X116.155 Y110.393 E15.06262
G1 X116.626 Y111.098 E15.09519
G1 X116.967 Y111.75 E15.12345
G1 X117.273 Y112.506 E15.15478
G1 X117.518 Y113.398 E15.19031
G1 X117.65 Y114.227 E15.22255
G1 X117.688 Y115.06 E15.25458
G1 X117.639 Y115.87 E15.28575
G1 X117.523 Y116.581 E15.31342
G1 X117.289 Y117.451 E15.34803
G1 X116.958 Y118.273 E15.38206
G1 X116.614 Y118.923 E15.41031
G1 X116.134 Y119.636 E15.44333
G1 X115.594 Y120.276 E15.47549
G1 X114.957 Y120.879 E15.50918
G1 X114.278 Y121.389 E15.5418
G1 X113.573 Y121.808 E15.5733
G1 X112.88 Y122.127 E15.60261
G1 X112.014 Y122.421 E15.63774
G1 X111.241 Y122.591 E15.66814
G1 X110.395 Y122.679 E15.70081
G1 X109.598 Y122.678 E15.73142
G1 X108.738 Y122.587 E15.76464
G1 X107.877 Y122.391 E15.79856
G1 X107.217 Y122.166 E15.82534
G1 X106.36 Y121.772 E15.86157
G1 X105.717 Y121.386 E15.89038
G1 X105.061 Y120.893 E15.9219
G1 X104.44 Y120.309 E15.95464
G1 X103.851 Y119.615 E15.98961
G1 X103.386 Y118.923 E16.02163
G1 X103.024 Y118.236 E16.05146
G1 X102.71 Y117.448 E16.08404
G1 X102.477 Y116.58 E16.11856
G1 X102.359 Y115.869 E16.14625
G1 X102.312 Y115.065 E16.17718
G1 X102.35 Y114.236 E16.20906
G1 X102.482 Y113.4 E16.24157
G1 X102.705 Y112.57 E16.27458
G1 X103.009 Y111.801 E16.30634
G1 X103.374 Y111.099 E16.33673
G1 X103.859 Y110.374 E16.37024
;;retract;;
G1 F2400 E15.81024
G1 X105.026 Y109.133 E15.61609
G1 X105.262 Y108.954 E15.58224
G1 F2400 E15.57024
G0 F4800 X104.107 Y110.562
G0 X104.618 Y109.839
G0 X94.478 Y109.839
G0 X94.378 Y88.189
G1 F2400 E16.37024
G0 F4800 X94.688 Y88.189
G1 F1800 X94.689 Y116.481 E17.45696
G1 X94.723 Y117.498 E17.49605
G1 X94.82 Y118.495 E17.53452
G1 X94.983 Y119.475 E17.57268
G1 X95.211 Y120.46 E17.61152
G1 X95.492 Y121.389 E17.6488
G1 X95.859 Y122.368 E17.68896
G1 X96.27 Y123.272 E17.7271
G1 X96.736 Y124.148 E17.76521
G1 X97.265 Y124.998 E17.80367
G1 X97.854 Y125.819 E17.84248
G1 X98.477 Y126.58 E17.88026
G1 X99.168 Y127.32 E17.91915
G1 X99.9 Y128.006 E17.95768
G1 X100.678 Y128.643 E17.9963
G1 X101.493 Y129.23 E18.03488
G1 X102.339 Y129.757 E18.07317
G1 X103.227 Y130.229 E18.1118
G1 X104.112 Y130.633 E18.14916
G1 X105.146 Y131.02 E18.19157
G1 X106.039 Y131.288 E18.22738
G1 X106.992 Y131.514 E18.26501
G1 X108.004 Y131.68 E18.3044
G1 X108.999 Y131.778 E18.3428
G1 X109.995 Y131.81 E18.38108
G1 X110.99 Y131.778 E18.41932
G1 X111.987 Y131.681 E18.45779
G1 X112.969 Y131.518 E18.49603
G1 X113.952 Y131.291 E18.53478
G1 X114.853 Y131.019 E18.57093
G1 X115.88 Y130.638 E18.61301
G1 X116.765 Y130.232 E18.65041
G1 X117.654 Y129.761 E18.68905
G1 X118.497 Y129.234 E18.72724
G1 X119.323 Y128.643 E18.76625
G1 X120.083 Y128.024 E18.8039
G1 X120.826 Y127.327 E18.84303
G1 X121.528 Y126.583 E18.88232
G1 X122.146 Y125.82 E18.92004
G1 X122.729 Y125.009 E18.9584
G1 X123.261 Y124.155 E18.99705
G1 X123.726 Y123.28 E19.03511
G1 X124.131 Y122.392 E19.0726
G1 X124.517 Y121.362 E19.11485
G1 X124.789 Y120.458 E19.15111
G1 X125.016 Y119.485 E19.18949
G1 X125.179 Y118.502 E19.22776
G1 X125.278 Y117.505 E19.26625
G1 X125.311 Y116.488 E19.30533
G1 X125.311 Y88.189 E20.39232
G1 X94.688 Y88.189 E21.56858
;;retract;;
G1 F2400 E21.00858
G1 X94.69 Y90.189 E20.78058
G1 F2400 E20.76858
G0 F4800 X94.378 Y88.189
G0 X125.55 Y87.95
G0 X125.622 Y88.49
G1 F2400 E21.56858
G0 F4800 X125.079 Y88.49
G1 F1800 X125.008 Y88.42 E21.57241
G1 X124.355 Y88.42
G1 X125.079 Y89.144 E21.61174
G1 X125.079 Y89.797
G1 X123.701 Y88.42 E21.68657
G1 X123.048 Y88.42
G1 X125.079 Y90.45 E21.79687
G1 X125.079 Y91.104
G1 X122.395 Y88.42 E21.94266
G1 X121.741 Y88.42
G1 X125.079 Y91.757 E22.12396
G1 X125.079 Y92.411
G1 X121.088 Y88.42 E22.34076
G1 X120.435 Y88.42
G1 X125.079 Y93.064 E22.59303
G1 X125.079 Y93.717
G1 X119.781 Y88.42 E22.88079
G1 X119.128 Y88.42
G1 X125.079 Y94.371 E23.20406
G1 X125.079 Y95.024
G1 X118.475 Y88.42 E23.5628
G1 X117.821 Y88.42
G1 X125.079 Y95.677 E23.95703
G1 X125.079 Y96.331
