;FLAVOR:Marlin
;TIME:1068.44
;Filament used:1.32035m
;Layer Height:0.2
;MINX:85.609
;MINY:96.937
;MINZ:0.2
;MAXX:134.409
;MAXY:153.694
;MAXZ:4
;OuterWall Time:208.545
;InnerWall Time:164.902
;Skin Time:457.879
;Support Time:0
;SkirtBrim Time:0
;Infill Time:34.8455
;Support Infills Time:0
;Combing Time:78.3757
;Retraction Time:123.896
;PrimeTower Time:0

;
;;;;;;;;;;;;;;;;;;;;;;;;;;;;;;;;;;;;;;;;;;;;;;;;;;;;;;;;;;;;;;;;;;;;;;;;;;;;
;Creality Print GCode Generated by CXEngine
;CRSLICE_GIT_HASH:6b8d75d
;Creality Print Version : V4.3.7.6625
;CXEngine Release Time:2023-09-15 20:42:32
;Gcode Generated Time:2023-11-03 22:27:24
;----------Machine Config--------------
;Machine Name:Ender-3 V3 SE
;Machine Height:250
;Machine Width:220
;Machine Depth:220
;Material Type:PLA
;Material Name:CR-PLA_1.75
;Number of Extruders:1
;ExtruderParams[0] Nozzle Diameter:1000
;----------Profile Config---------------
;Wall Thickness:0.8
;Top/Bottom Thickness:0.8
;Out Wall Line Width:0.42
;Inner Wall Line Width:0.45
;Inital Height:200
;Wall Line Count:2
;Infill Line Distance:8
;Infill Pattern:grid
;Infill Sparse Density:10
;Infill Wipe Distance:0
;Print Temperature:205
;Bed Temperature:60
;Support Enable:false
;Support Density:15
;Support Angle:60
;Adhesion Type:autobrim
;machine is belt:false
;machine belt offset:10
;machine belt offset Y:0
;Raft Base Line Spacing:1.6
;Wait Heatup Sync:true
;Enable Ironing:false
;Material Type:PLA
;Max volumetric speed:20
;Material Diameter:1.75
;Material Density:1.24
;Filament Cost:0.3
;Filament Weight:0
;Preview Img Type:png
;Screen Size:Sermoon D3
;----------Shell Config----------------
;Outer Wall Wipe Distance:200
;Outer Inset First:false
;Infill Before Walls:false
;Infill Overlap:0.04
;Fill Gaps Between Walls:everywhere
;Minimum Infill Area:15
;Top Surface Skin Layer:0
;Top Layers:4
;Z Seam Alignment:sharpest_corner
;Seam Corner Preference:z_seam_corner_inner
;Z Seam X:110
;Z Seam Y:220
;Horizontal Expansion:0
;Top/Bottom Pattern:zigzag
;Ironing Pattern:zigzag
;Vase Model:false
;----------Support Config----------------
;Support Type:everywhere
;Support Pattern:zigzag
;Support Infill Layer Thickness:0.15
;Minimum Support Area:1
;Enable Support Roof:true
;Support Roof Thickness:0.8
;Support Roof Pattern:lines
;Connect Support Lines:0
;Connect Support ZigZags:1
;Minimum Support X/Y Distance:0.2
;Support Line Distance:2.67
; ---------PrintSpeed & Travel----------
;Enable Print Cool:true
;Avoid Printed Parts Traveling:true
;Enable Retraction:true
;Retraction Distance:0.8
;Retraction Speed:40
;Retraction Prime Speed:40
;Maximum Retraction Count:100
;Minimum Extrusion Distance Window:0.8
;Z Hop When Retracted:false
;Z Hop Height:0.2
;Retract Before Outer Wall:true

;Outer Wall Speed:60
;Inner Wall Speed:90
;Infill Speed:180
;Top/Bottom Speed:50
;Travel Speed:150
;Initial Layer Speed:30
;Skirt/Brim Speed:25
;Prime Tower Speed:60
;Outer Wall Acceleration:1000
;Inner Wall Acceleration:2000
;Infill Acceleration:2500
;Top/Bottom Acceleration:2500
;Travel Acceleration:2500
;Initial Layer Print Acceleration:500
;Initial Layer Travel Acceleration:500
;Skirt/Brim Acceleration:500
;Combing Mode:noskin
; --------SpecialModel&Mesh Fixes--------
;Union Overlapping Volum:true
;Remove All Holes:false
;Maximum Travel Resolution:0.25
;Maximum Deviation:0.05
;Maximum Model Angle:0.872767
;IS Mold Print:false
;Make Overhang Printable:false
;Enable Coasting:false
;Coasting Volumes:0.064
;Coasting Speed:0.9
;Raft AirGap:0.25
;Layer0 ZOverLap:0.13
;Adaptive Layers:0
;---------------------End of Head--------------------------
M140 S60
M105
M190 S60
M104 S205
M82 ;absolute extrusion mode
M220 S100 ;Reset Feedrate
M221 S100 ;Reset Flowrate

G28 ;Home

G92 E0 ;Reset Extruder
G1 Z2.0 F3000 ;Move Z Axis up
G1 X10.1 Y20 Z0.28 F5000.0 ;Move to start position
M109 S205.000000
G1 X10.1 Y145.0 Z0.28 F1500.0 E15 ;Draw the first line
G1 X10.4 Y145.0 Z0.28 F5000.0 ;Move to side a little
G1 X10.4 Y20 Z0.28 F1500.0 E30 ;Draw the second line
G92 E0  ;Reset Extruder
G1 E-1.0000 F1800 ;Retract a bit
G1 Z2.0 F3000 ;Move Z Axis up
G1 E0.0000 F1800 

G92 E0
G92 E0
G1 F2400 E-0.8
;LAYER_COUNT:20

;LAYER:0
M106 S0
M204 S500
;MESH:0_0
G0 F4800 X100.751 Y108.892 Z0.2
;TYPE:WALL-INNER
G1 F2400 E0
G1 F1800 X101.151 Y109.085 E0.01828
G1 X101.484 Y109.32 E0.03505
G1 X101.797 Y109.626 E0.05307
G1 X102.057 Y110.005 E0.07198
G1 X102.233 Y110.379 E0.08899
G1 X102.339 Y110.787 E0.10634
G1 X102.379 Y111.219 E0.1242
G1 X102.344 Y111.656 E0.14224
G1 X102.221 Y112.093 E0.16092
G1 X102.047 Y112.471 E0.17805
G1 X101.807 Y112.809 E0.19511
G1 X101.478 Y113.137 E0.21423
G1 X101.135 Y113.38 E0.23153
G1 X100.763 Y113.55 E0.24836
G1 X100.34 Y113.668 E0.26643
G1 X99.936 Y113.706 E0.28313
G1 X99.481 Y113.674 E0.3019
G1 X99.044 Y113.559 E0.3205
G1 X98.688 Y113.391 E0.3367
G1 X98.314 Y113.134 E0.35537
G1 X97.984 Y112.804 E0.37458
G1 X97.746 Y112.461 E0.39176
G1 X97.565 Y112.079 E0.40916
G1 X97.46 Y111.684 E0.42598
G1 X97.42 Y111.299 E0.44191
G1 X97.42 Y111.179 E0.44685
G1 X97.458 Y110.775 E0.46355
G1 X97.576 Y110.349 E0.48174
G1 X97.739 Y110.004 E0.49744
G1 X97.992 Y109.639 E0.51572
G1 X98.287 Y109.339 E0.53304
G1 X98.661 Y109.075 E0.55188
G1 X99.021 Y108.904 E0.56828
G1 X99.467 Y108.779 E0.58734
G1 X99.892 Y108.745 E0.60489
G1 X100.345 Y108.786 E0.62361
G1 X100.751 Y108.892 E0.64088
;;retract;;
G1 F2400 E0.08088
G1 X101.484 Y109.32 E-0.0158
G1 X101.797 Y109.626 E-0.06561
G1 X102.057 Y110.005 E-0.11794
G1 X102.166 Y110.236 E-0.14712
G1 F2400 E-0.15912
G0 F4800 X100.57 Y109.34
;TYPE:WALL-OUTER
G1 F2400 E0.64088
G1 F1800 X100.898 Y109.491 E0.65447
G1 X101.182 Y109.691 E0.66754
G1 X101.421 Y109.927 E0.68019
G1 X101.637 Y110.234 E0.69432
G1 X101.779 Y110.539 E0.70698
G1 X101.869 Y110.876 E0.72011
G1 X101.9 Y111.199 E0.73233
G1 X101.87 Y111.569 E0.7463
G1 X101.776 Y111.918 E0.7599
G1 X101.638 Y112.216 E0.77227
G1 X101.416 Y112.529 E0.78671
G1 X101.18 Y112.762 E0.7992
G1 X100.88 Y112.97 E0.81294
G1 X100.573 Y113.11 E0.82564
G1 X100.239 Y113.2 E0.83866
G1 X99.922 Y113.228 E0.85064
G1 X99.536 Y113.194 E0.86522
G1 X99.221 Y113.111 E0.87749
G1 X98.901 Y112.962 E0.89077
G1 X98.614 Y112.761 E0.90396
G1 X98.36 Y112.508 E0.91746
G1 X98.171 Y112.239 E0.92983
G1 X98.023 Y111.928 E0.9428
G1 X97.927 Y111.582 E0.95632
G1 X97.897 Y111.257 E0.9686
G1 X97.925 Y110.882 E0.98276
G1 X98.013 Y110.546 E0.99583
G1 X98.161 Y110.229 E1.009
G1 X98.375 Y109.927 E1.02293
G1 X98.622 Y109.683 E1.036
G1 X98.906 Y109.486 E1.04901
G1 X99.208 Y109.345 E1.06156
G1 X99.561 Y109.252 E1.0753
G1 X99.896 Y109.224 E1.08796
G1 X100.237 Y109.253 E1.10084
G1 X100.57 Y109.34 E1.11379
G0 F4800 X100.751 Y109.423
;;retract;;
G1 F2400 E0.55379
G1 X101.182 Y109.691 E0.496
G1 X101.421 Y109.927 E0.45781
G1 X101.637 Y110.234 E0.41506
G1 X101.779 Y110.539 E0.37675
G1 X101.869 Y110.876 E0.33708
G1 X101.878 Y110.974 E0.32579
G1 F2400 E0.31379
G0 F4800 X101.017 Y108.854
G0 X101.318 Y108.921
G0 X109.557 Y105.648
G0 X110.024 Y106.354
G0 X110.56 Y106.592
G0 X111.601 Y106.382
G0 X111.287 Y106.785
G0 X111.223 Y107.218
G1 F2400 E1.11379
G0 F4800 X111.36 Y107.263
;TYPE:WALL-INNER
G1 F1800 X111.45 Y107.625 E1.12915
G1 X111.741 Y107.872 E1.14485
G1 X111.979 Y107.957 E1.15525
G1 X129.739 Y107.957 E1.88616
G1 F1538.9 X130.148 Y108.041 E1.90626
G1 F1364.5 X130.613 Y108.03 E1.93151
G1 F1387.9 X131.033 Y108.055 E1.95397
G1 F1385.7 X131.447 Y108.134 E1.9765
G1 F1387.9 X131.822 Y108.255 E1.99753
G1 F1390 X132.189 Y108.428 E2.01916
G1 F1387.9 X132.525 Y108.643 E2.04045
G1 F1383.5 X132.837 Y108.901 E2.06213
G1 F1385.7 X133.108 Y109.186 E2.08315
G1 X133.342 Y109.51 E2.10452
G1 F1383.5 X133.536 Y109.864 E2.12613
G1 F1385.7 X133.688 Y110.245 E2.14806
G1 F1387.9 X133.785 Y110.623 E2.16889
G1 X133.835 Y111.022 E2.19035
G1 F1383.5 X133.835 Y111.421 E2.21172
G1 F1387.9 X133.785 Y111.829 E2.23366
G1 X133.689 Y112.205 E2.25437
G1 F1385.7 X133.537 Y112.585 E2.27625
G1 X133.344 Y112.938 E2.29776
G1 F1387.9 X133.11 Y113.262 E2.31909
G1 X132.838 Y113.55 E2.34023
G1 F1383.5 X132.524 Y113.809 E2.36203
G1 F1387.9 X132.191 Y114.023 E2.38316
G1 F1390 X131.82 Y114.198 E2.40502
G1 F1385.7 X131.447 Y114.317 E2.42595
G1 X131.044 Y114.395 E2.44789
G1 F1387.9 X130.62 Y114.422 E2.47057
G1 F1354.1 X130.057 Y114.406 E2.50138
G1 F1502.5 X129.661 Y114.495 E2.52139
G1 F1753.9 X120.373 Y114.495 E2.91367
G1 F1785.6 X111.085 Y114.496 E3.29901
G1 F1800 X110.695 Y114.791 E3.31913
G1 X110.308 Y115.775 E3.36265
G1 X109.938 Y116.541 E3.39766
G1 X109.513 Y117.279 E3.4327
G1 X109.032 Y117.983 E3.46779
G1 X108.499 Y118.648 E3.50287
G1 X107.922 Y119.271 E3.53781
G1 X107.295 Y119.849 E3.57291
G1 X106.624 Y120.382 E3.60818
G1 X105.922 Y120.859 E3.64311
G1 X105.186 Y121.281 E3.67802
G1 X104.414 Y121.651 E3.71325
G1 X103.614 Y121.962 E3.74858
G1 X102.803 Y122.21 E3.78348
G1 X101.998 Y122.392 E3.81744
G1 X101.13 Y122.52 E3.85355
G1 X100.28 Y122.581 E3.88862
G1 X99.434 Y122.578 E3.92344
G1 X98.607 Y122.514 E3.95758
G1 X97.721 Y122.378 E3.99447
G1 X96.913 Y122.188 E4.02863
G1 X96.128 Y121.944 E4.06246
G1 X95.308 Y121.617 E4.09879
G1 X94.538 Y121.243 E4.13402
G1 X93.807 Y120.816 E4.16886
G1 X93.102 Y120.332 E4.20405
G1 X92.438 Y119.796 E4.23917
G1 X91.817 Y119.214 E4.2742
G1 X91.242 Y118.587 E4.30921
G1 X90.715 Y117.917 E4.34429
G1 X90.24 Y117.211 E4.37931
G1 X89.819 Y116.472 E4.41431
G1 X89.456 Y115.702 E4.44935
G1 X89.146 Y114.9 E4.48473
G1 X88.907 Y114.106 E4.51886
G1 X88.716 Y113.233 E4.55564
G1 X88.599 Y112.415 E4.58964
G1 X88.541 Y111.569 E4.62454
G1 X88.549 Y110.586 E4.665
G1 X88.376 Y110.203 E4.68229
G1 F1687.5 X87.999 Y109.941 E4.70245
G1 F1643.9 X87.475 Y109.852 E4.7264
G1 F1706.9 X87.035 Y109.713 E4.74642
G1 X86.605 Y109.527 E4.76676
G1 X86.483 Y109.46 E4.7728
G1 X86.612 Y109.428 E4.77856
G1 X87.091 Y109.358 E4.79957
G1 X87.546 Y109.338 E4.81934
G1 F1643.9 X88.072 Y109.386 E4.84314
G1 F1687.5 X88.504 Y109.23 E4.8633
G1 F1800 X88.776 Y108.873 E4.88177
G1 X88.922 Y108.288 E4.90659
G1 X89.084 Y107.732 E4.93042
G1 X89.105 Y107.339 E4.94662
G1 F1690.7 X88.737 Y106.906 E4.97152
G1 F1650 X88.252 Y106.683 E4.99548
G1 F1706.9 X87.864 Y106.434 E5.01549
G1 X87.35 Y106.028 E5.04392
G1 X87.964 Y106.101 E5.07075
G1 X88.456 Y106.207 E5.0926
G1 F1650 X88.951 Y106.387 E5.11624
G1 F1690.7 X89.409 Y106.349 E5.13638
G1 F1800 X89.764 Y106.075 E5.15483
G1 X90.058 Y105.544 E5.17981
G1 X90.371 Y105.024 E5.20479
G1 X90.431 Y104.579 E5.22327
G1 F1690.7 X90.235 Y104.164 E5.24338
G1 F1650 X89.824 Y103.822 E5.26739
G1 F1710.2 X89.514 Y103.485 E5.28722
G1 X89.123 Y102.958 E5.31564
G1 X89.724 Y103.196 E5.34364
G1 X90.14 Y103.412 E5.36395
G1 F1650 X90.575 Y103.721 E5.3879
G1 F1690.7 X91.134 Y103.822 E5.41279
G1 F1800 X91.464 Y103.608 E5.42898
G1 X91.864 Y103.192 E5.45273
G1 X92.28 Y102.792 E5.47648
G1 X92.494 Y102.462 E5.49267
G1 F1690.7 X92.393 Y101.903 E5.51756
G1 F1650 X92.084 Y101.468 E5.54151
G1 F1710.2 X91.869 Y101.055 E5.56168
G1 X91.63 Y100.452 E5.58978
G1 X92.154 Y100.841 E5.61805
G1 X92.495 Y101.153 E5.63807
G1 F1650 X92.836 Y101.563 E5.66201
G1 F1690.7 X93.251 Y101.759 E5.68212
G1 F1800 X93.696 Y101.699 E5.7006
G1 X94.217 Y101.386 E5.72561
G1 X94.729 Y101.104 E5.74967
G1 X95.013 Y100.844 E5.76551
G1 F1690.7 X95.06 Y100.28 E5.79031
G1 F1647 X94.879 Y99.784 E5.81406
G1 F1706.9 X94.774 Y99.3 E5.83555
G1 X94.7 Y98.676 E5.86282
G1 X95.101 Y99.186 E5.89098
G1 X95.362 Y99.593 E5.91196
G1 F1647 X95.579 Y100.065 E5.93533
G1 F1690.7 X95.93 Y100.362 E5.95548
G1 F1800 X96.374 Y100.418 E5.97389
G1 X96.961 Y100.25 E5.99902
G1 X97.533 Y100.107 E6.02329
G1 X97.902 Y99.831 E6.04225
G1 F1690.7 X98.057 Y99.399 E6.06236
G1 F1650 X98.01 Y98.876 E6.08593
G1 F1706.9 X98.03 Y98.419 E6.10579
G1 X98.126 Y97.766 E6.13443
G1 X98.379 Y98.348 E6.16197
G1 X98.524 Y98.805 E6.18278
G1 F1650 X98.614 Y99.326 E6.20652
G1 F1690.7 X98.875 Y99.704 E6.22664
G1 F1800 X99.256 Y99.876 E6.24385
G1 X99.898 Y99.864 E6.27027
G1 X100.539 Y99.876 E6.29666
G1 X100.92 Y99.704 E6.31386
G1 F1687.5 X101.182 Y99.327 E6.33402
G1 F1643.9 X101.269 Y98.817 E6.35733
G1 F1703.6 X101.411 Y98.367 E6.37785
G1 X101.669 Y97.761 E6.40649
G1 X101.762 Y98.393 E6.43426
G1 X101.785 Y98.871 E6.45507
G1 F1643.9 X101.737 Y99.4 E6.47901
G1 F1687.5 X101.893 Y99.832 E6.49917
G1 F1800 X102.25 Y100.104 E6.51764
G1 X102.838 Y100.251 E6.54259
G1 X103.393 Y100.411 E6.56636
G1 X103.785 Y100.43 E6.58251
G1 F1687.5 X104.219 Y100.064 E6.60743
G1 F1647 X104.437 Y99.587 E6.63102
G1 F1706.9 X104.689 Y99.194 E6.65128
G1 X105.096 Y98.674 E6.67994
G1 X105.022 Y99.293 E6.70699
G1 X104.917 Y99.784 E6.72879
G1 F1647 X104.735 Y100.278 E6.75247
G1 F1687.5 X104.782 Y100.843 E6.77735
G1 F1800 X105.066 Y101.103 E6.7932
G1 X105.579 Y101.386 E6.81731
G1 X106.083 Y101.691 E6.84156
G1 X106.447 Y101.805 E6.85725
G1 F1690.7 X106.959 Y101.563 E6.88207
G1 F1650 X107.297 Y101.156 E6.90582
G1 F1710.2 X107.627 Y100.853 E6.92522
G1 X108.166 Y100.449 E6.9544
G1 X107.926 Y101.055 E6.98264
G1 X107.711 Y101.468 E7.0028
G1 F1650 X107.402 Y101.903 E7.02676
G1 F1690.7 X107.301 Y102.462 E7.05165
G1 F1800 X107.515 Y102.792 E7.06784
G1 X107.932 Y103.192 E7.09162
G1 X108.375 Y103.653 E7.11793
G1 X108.768 Y103.803 E7.13524
G1 F1690.7 X109.221 Y103.721 E7.15541
G1 F1647 X109.651 Y103.415 E7.17915
G1 F1706.9 X110.054 Y103.204 E7.19889
G1 X110.671 Y102.958 E7.22772
G1 X110.281 Y103.485 E7.25617
G1 X109.971 Y103.822 E7.27604
G1 F1647 X109.56 Y104.164 E7.30009
G1 F1690.7 X109.318 Y104.677 E7.32495
G1 F1800 X109.434 Y105.043 E7.34075
G1 X109.737 Y105.545 E7.36488
G1 X110.019 Y106.057 E7.38893
G1 X110.201 Y106.253 E7.39994
G1 X110.53 Y106.384 E7.41452
G1 X110.839 Y106.355 E7.42729
G1 X111.335 Y106.194 E7.44875
G1 X111.812 Y106.091 E7.46883
G1 X112.48 Y106.01 E7.49653
G1 X112.038 Y106.371 E7.52001
G1 X111.598 Y106.682 E7.54219
G1 X111.407 Y106.956 E7.55593
G1 X111.36 Y107.263 E7.56871
;;retract;;
G1 F2400 E7.00871
G1 X111.741 Y107.872 E6.92686
G1 X111.979 Y107.957 E6.89813
G1 X113.009 Y107.957 E6.78071
G1 F2400 E6.76871
G0 F4800 X111.838 Y107.229
;TYPE:WALL-OUTER
G1 F2400 E7.56871
G1 F1800 X111.892 Y107.385 E7.57493
G1 X112.033 Y107.474 E7.5812
G1 X130.639 Y107.478 E8.28159
G1 X131.101 Y107.506 E8.29901
G1 X131.584 Y107.597 E8.31751
G1 X132.026 Y107.741 E8.33501
G1 X132.455 Y107.944 E8.35287
G1 X132.85 Y108.194 E8.37047
G1 X133.216 Y108.496 E8.38833
G1 X133.534 Y108.833 E8.40577
G1 X133.81 Y109.214 E8.42348
G1 X134.038 Y109.629 E8.44131
G1 X134.215 Y110.074 E8.45934
G1 X134.328 Y110.519 E8.47662
G1 X134.388 Y110.987 E8.49438
G1 X134.388 Y111.456 E8.51203
G1 X134.328 Y111.932 E8.53009
G1 X134.216 Y112.375 E8.54729
G1 X134.039 Y112.821 E8.56536
G1 X133.812 Y113.235 E8.58313
G1 X133.536 Y113.615 E8.60081
G1 X133.217 Y113.954 E8.61833
G1 X132.85 Y114.258 E8.63627
G1 X132.457 Y114.507 E8.65378
G1 X132.024 Y114.712 E8.67182
G1 X131.585 Y114.854 E8.68918
G1 X131.114 Y114.943 E8.70723
G1 X130.638 Y114.974 E8.72518
G1 X111.247 Y114.974 E9.45511
G1 X111.089 Y115.101 E9.46275
G1 X110.746 Y115.967 E9.49781
G1 X110.362 Y116.765 E9.53114
G1 X109.918 Y117.534 E9.56457
G1 X109.417 Y118.267 E9.59799
G1 X108.862 Y118.961 E9.63144
G1 X108.26 Y119.61 E9.66476
G1 X107.607 Y120.212 E9.6982
G1 X106.908 Y120.768 E9.73182
G1 X106.175 Y121.265 E9.76515
G1 X105.409 Y121.705 E9.79841
G1 X104.604 Y122.09 E9.832
G1 X103.771 Y122.415 E9.86565
G1 X102.926 Y122.673 E9.89891
G1 X102.086 Y122.863 E9.93133
G1 X101.182 Y122.996 E9.96573
G1 X100.296 Y123.06 E9.99916
G1 X99.415 Y123.056 E10.03233
G1 X98.553 Y122.989 E10.06487
G1 X97.63 Y122.848 E10.10002
G1 X96.787 Y122.65 E10.13262
G1 X95.968 Y122.395 E10.16491
G1 X95.114 Y122.056 E10.19949
G1 X94.312 Y121.665 E10.23308
G1 X93.551 Y121.221 E10.26625
G1 X92.816 Y120.716 E10.29981
G1 X92.124 Y120.158 E10.33328
G1 X91.476 Y119.55 E10.36672
G1 X90.877 Y118.897 E10.40008
G1 X90.328 Y118.199 E10.43351
G1 X89.833 Y117.463 E10.4669
G1 X89.394 Y116.692 E10.50029
G1 X89.016 Y115.891 E10.53363
G1 X88.693 Y115.055 E10.56737
G1 X88.444 Y114.226 E10.59995
G1 X88.245 Y113.318 E10.63495
G1 X88.123 Y112.466 E10.66734
G1 X88.062 Y111.584 E10.70062
G1 X88.069 Y110.65 E10.73578
G1 X87.991 Y110.461 E10.74348
