;FLAVOR:Marlin
;TIME:1953.26
;Filament used:2.56324m
;Layer Height:0.2
;MINX:80.308
;MINY:53.552
;MINZ:0.2
;MAXX:179.965
;MAXY:160.362
;MAXZ:8.6
;OuterWall Time:393.029
;InnerWall Time:304.947
;Skin Time:749.723
;Support Time:0
;SkirtBrim Time:0
;Infill Time:99.9443
;Support Infills Time:0
;Combing Time:194.127
;Retraction Time:211.49
;PrimeTower Time:0


;;;;;;;;;;;;;;;;;;;;;;;;;;;;;;;;;;;;;;;;;;;;;;;;;;;;;;;;;;;;;;;;;;;;;;;;;;;;
;Creality Print GCode Generated by CXEngine
;CRSLICE_GIT_HASH:6b8d75d
;Creality Print Version : V4.3.7.6625
;CXEngine Release Time:2023-09-15 20:42:32
;Gcode Generated Time:2023-11-02 22:22:31
;----------Machine Config--------------
;Machine Name:Ender-3 V3 SE
;Machine Height:250
;Machine Width:220
;Machine Depth:220
;Material Type:PLA
;Material Name:CR-PLA_1.75
;Number of Extruders:1
;ExtruderParams[0] Nozzle Diameter:1000
;----------Profile Config---------------
;Wall Thickness:0.8
;Top/Bottom Thickness:0.8
;Out Wall Line Width:0.42
;Inner Wall Line Width:0.45
;Inital Height:200
;Wall Line Count:2
;Infill Line Distance:8
;Infill Pattern:grid
;Infill Sparse Density:10
;Infill Wipe Distance:0
;Print Temperature:205
;Bed Temperature:60
;Support Enable:false
;Support Density:15
;Support Angle:60
;Adhesion Type:autobrim
;machine is belt:false
;machine belt offset:10
;machine belt offset Y:0
;Raft Base Line Spacing:1.6
;Wait Heatup Sync:true
;Enable Ironing:false
;Material Type:PLA
;Max volumetric speed:20
;Material Diameter:1.75
;Material Density:1.24
;Filament Cost:0.3
;Filament Weight:0
;Preview Img Type:png
;Screen Size:Sermoon D3
;----------Shell Config----------------
;Outer Wall Wipe Distance:200
;Outer Inset First:false
;Infill Before Walls:false
;Infill Overlap:0.04
;Fill Gaps Between Walls:everywhere
;Minimum Infill Area:15
;Top Surface Skin Layer:0
;Top Layers:4
;Z Seam Alignment:sharpest_corner
;Seam Corner Preference:z_seam_corner_inner
;Z Seam X:110
;Z Seam Y:220
;Horizontal Expansion:0
;Top/Bottom Pattern:zigzag
;Ironing Pattern:zigzag
;Vase Model:false
;----------Support Config----------------
;Support Type:everywhere
;Support Pattern:zigzag
;Support Infill Layer Thickness:0.15
;Minimum Support Area:1
;Enable Support Roof:true
;Support Roof Thickness:0.8
;Support Roof Pattern:lines
;Connect Support Lines:0
;Connect Support ZigZags:1
;Minimum Support X/Y Distance:0.2
;Support Line Distance:2.67
; ---------PrintSpeed & Travel----------
;Enable Print Cool:true
;Avoid Printed Parts Traveling:true
;Enable Retraction:true
;Retraction Distance:0.8
;Retraction Speed:40
;Retraction Prime Speed:40
;Maximum Retraction Count:100
;Minimum Extrusion Distance Window:0.8
;Z Hop When Retracted:false
;Z Hop Height:0.2
;Retract Before Outer Wall:true

;Outer Wall Speed:60
;Inner Wall Speed:90
;Infill Speed:180
;Top/Bottom Speed:50
;Travel Speed:150
;Initial Layer Speed:30
;Skirt/Brim Speed:25
;Prime Tower Speed:60
;Outer Wall Acceleration:1000
;Inner Wall Acceleration:2000
;Infill Acceleration:2500
;Top/Bottom Acceleration:2500
;Travel Acceleration:2500
;Initial Layer Print Acceleration:500
;Initial Layer Travel Acceleration:500
;Skirt/Brim Acceleration:500
;Combing Mode:noskin
; --------SpecialModel&Mesh Fixes--------
;Union Overlapping Volum:true
;Remove All Holes:false
;Maximum Travel Resolution:0.25
;Maximum Deviation:0.05
;Maximum Model Angle:0.872767
;IS Mold Print:false
;Make Overhang Printable:false
;Enable Coasting:false
;Coasting Volumes:0.064
;Coasting Speed:0.9
;Raft AirGap:0.25
;Layer0 ZOverLap:0.13
;Adaptive Layers:0
;---------------------End of Head--------------------------
M140 S60
M105
M190 S60
M104 S205
M82 ;absolute extrusion mode
M220 S100 ;Reset Feedrate
M221 S100 ;Reset Flowrate

G28 ;Home

G92 E0 ;Reset Extruder
G1 Z2.0 F3000 ;Move Z Axis up
G1 X10.1 Y20 Z0.28 F5000.0 ;Move to start position
M109 S205.000000
G1 X10.1 Y145.0 Z0.28 F1500.0 E15 ;Draw the first line
G1 X10.4 Y145.0 Z0.28 F5000.0 ;Move to side a little
G1 X10.4 Y20 Z0.28 F1500.0 E30 ;Draw the second line
G92 E0  ;Reset Extruder
G1 E-1.0000 F1800 ;Retract a bit
G1 Z2.0 F3000 ;Move Z Axis up
G1 E0.0000 F1800 

G92 E0
G92 E0
G1 F2400 E-0.8
;LAYER_COUNT:43

;LAYER:0
M106 S0
M204 S500
;MESH:0_0
G0 F4800 X93.72 Y67.727 Z0.2
;TYPE:WALL-INNER
G1 F2400 E0
G1 F1800 X93.342 Y67.547 E0.01723
G1 X93.009 Y67.312 E0.034
G1 X92.695 Y67.005 E0.05208
G1 X92.446 Y66.643 E0.07016
G1 X92.275 Y66.283 E0.08656
G1 X92.15 Y65.827 E0.10602
G1 X92.118 Y65.479 E0.1204
G1 X92.116 Y65.387 E0.12419
G1 X92.149 Y65.002 E0.14009
G1 X92.263 Y64.554 E0.15912
G1 X92.445 Y64.17 E0.1766
G1 X92.683 Y63.828 E0.19375
G1 X92.99 Y63.517 E0.21174
G1 X93.359 Y63.253 E0.23041
G1 X93.754 Y63.073 E0.24827
G1 X94.168 Y62.959 E0.26595
G1 X94.599 Y62.923 E0.28375
G1 X95.034 Y62.965 E0.30173
G1 X95.432 Y63.07 E0.31867
G1 X95.84 Y63.257 E0.33714
G1 X96.199 Y63.514 E0.35531
G1 X96.472 Y63.784 E0.37111
G1 X96.746 Y64.159 E0.39023
G1 X96.94 Y64.595 E0.40987
G1 X97.04 Y64.977 E0.42612
G1 X97.077 Y65.392 E0.44326
G1 X97.043 Y65.828 E0.46126
G1 X96.929 Y66.255 E0.47945
G1 X96.755 Y66.628 E0.49639
G1 X96.502 Y66.993 E0.51467
G1 X96.207 Y67.293 E0.53198
G1 X95.846 Y67.549 E0.5502
G1 X95.443 Y67.742 E0.56858
G1 X95.015 Y67.852 E0.58677
G1 X94.596 Y67.887 E0.60408
G1 X94.15 Y67.846 E0.62251
G1 X93.72 Y67.727 E0.64087
;;retract;;
G1 F2400 E0.08087
G1 X93.009 Y67.312 E-0.01295
G1 X92.695 Y67.005 E-0.063
G1 X92.446 Y66.643 E-0.11304
G1 X92.318 Y66.373 E-0.14713
G1 F2400 E-0.15913
G0 F4800 X93.917 Y67.29
;TYPE:WALL-OUTER
G1 F2400 E0.64087
G1 F1800 X93.595 Y67.141 E0.65422
G1 X93.303 Y66.935 E0.66768
G1 X93.067 Y66.699 E0.68024
G1 X92.857 Y66.398 E0.69406
G1 X92.716 Y66.096 E0.7066
G1 X92.622 Y65.745 E0.72028
G1 X92.595 Y65.437 E0.73192
G1 X92.623 Y65.068 E0.74585
G1 X92.714 Y64.726 E0.75917
G1 X92.861 Y64.407 E0.77239
G1 X93.065 Y64.117 E0.78574
G1 X93.306 Y63.877 E0.79854
G1 X93.596 Y63.672 E0.81191
G1 X93.903 Y63.528 E0.82467
G1 X94.253 Y63.433 E0.83833
G1 X94.577 Y63.404 E0.85057
G1 X94.933 Y63.433 E0.86402
G1 X95.278 Y63.523 E0.87744
G1 X95.582 Y63.664 E0.89005
G1 X95.892 Y63.881 E0.9043
G1 X96.126 Y64.115 E0.91675
G1 X96.325 Y64.395 E0.92968
G1 X96.475 Y64.714 E0.94295
G1 X96.569 Y65.06 E0.95645
G1 X96.598 Y65.394 E0.96907
G1 X96.568 Y65.752 E0.98259
G1 X96.485 Y66.073 E0.99507
G1 X96.33 Y66.407 E1.00893
G1 X96.131 Y66.691 E1.02199
G1 X95.889 Y66.936 E1.03495
G1 X95.588 Y67.146 E1.04877
G1 X95.286 Y67.287 E1.06131
G1 X94.929 Y67.381 E1.07521
G1 X94.591 Y67.408 E1.08797
G1 X94.257 Y67.379 E1.10059
G1 X93.917 Y67.29 E1.11382
G0 F4800 X93.736 Y67.206
;;retract;;
G1 F2400 E0.55382
G1 X93.303 Y66.935 E0.49568
G1 X93.067 Y66.699 E0.45772
G1 X92.857 Y66.398 E0.41588
G1 X92.716 Y66.096 E0.37792
G1 X92.622 Y65.745 E0.33654
G1 X92.614 Y65.652 E0.32582
G1 F2400 E0.31382
G0 F4800 X93.47 Y67.775
G0 X94.118 Y67.989
G0 X95.075 Y67.989
G0 X95.74 Y67.742
G0 X96.616 Y67.206
G0 X104.879 Y70.103
G0 X106.301 Y70.25
G0 X105.931 Y69.465
G1 F2400 E1.11382
G0 F4800 X106.059 Y69.369
;TYPE:WALL-INNER
G1 F1800 X106.106 Y69.677 E1.12664
G1 X106.307 Y69.965 E1.1411
G1 X106.726 Y70.248 E1.16191
G1 X107.173 Y70.619 E1.18581
G1 X106.529 Y70.544 E1.2125
G1 X106.034 Y70.438 E1.23333
G1 X105.539 Y70.277 E1.25475
G1 X105.23 Y70.248 E1.26752
G1 X104.993 Y70.322 E1.27774
G1 X104.719 Y70.575 E1.29309
G1 X104.437 Y71.088 E1.31718
G1 X104.124 Y71.606 E1.34209
G1 X104.063 Y72.053 E1.36066
G1 F1690.7 X104.266 Y72.474 E1.38114
G1 F1647 X104.666 Y72.806 E1.40452
G1 F1706.9 X104.98 Y73.148 E1.42467
G1 X105.373 Y73.675 E1.4532
G1 X104.761 Y73.432 E1.48178
G1 X104.349 Y73.217 E1.50194
G1 F1647 X103.926 Y72.917 E1.52527
G1 F1690.7 X103.361 Y72.809 E1.55047
G1 F1800 X103.029 Y73.024 E1.56675
G1 X102.63 Y73.441 E1.5905
G1 X102.214 Y73.84 E1.61423
G1 X101.999 Y74.172 E1.6305
G1 F1690.7 X102.107 Y74.736 E1.65566
G1 F1650 X102.407 Y75.159 E1.67895
G1 F1844.7 X102.652 Y75.545 E1.69731
G1 F2006.8 X102.829 Y75.988 E1.71492
G1 X102.908 Y76.26 E1.72537
G1 X102.313 Y75.82 E1.75269
G1 F1844.7 X101.996 Y75.476 E1.77147
G1 F1650 X101.666 Y75.078 E1.79469
G1 F1690.7 X101.147 Y74.826 E1.81996
G1 F1800 X100.779 Y74.943 E1.83586
G1 X100.277 Y75.246 E1.85999
G1 X99.75 Y75.538 E1.88478
G1 X99.474 Y75.894 E1.90332
G1 F1687.5 X99.436 Y76.357 E1.92371
G1 F1643.9 X99.615 Y76.847 E1.94722
G1 F1706.9 X99.72 Y77.333 E1.9688
G1 X99.796 Y77.956 E1.99604
G1 X99.388 Y77.441 E2.02455
G1 X99.136 Y77.045 E2.04493
G1 F1643.9 X98.918 Y76.571 E2.06844
G1 F1687.5 X98.564 Y76.27 E2.08883
G1 F1800 X98.15 Y76.203 E2.10609
G1 X97.533 Y76.382 E2.13253
G1 X96.918 Y76.535 E2.15861
G1 X96.592 Y76.801 E2.17593
G1 F1687.5 X96.437 Y77.241 E2.19641
G1 F1647 X96.484 Y77.756 E2.21967
G1 F1706.9 X96.464 Y78.212 E2.23948
G1 X96.37 Y78.872 E2.26841
G1 X96.109 Y78.268 E2.29697
G1 X95.968 Y77.815 E2.31756
G1 F1647 X95.883 Y77.314 E2.34041
G1 F1687.5 X95.619 Y76.928 E2.36094
G1 F1800 X95.231 Y76.76 E2.37834
G1 X94.596 Y76.768 E2.40448
G1 X93.963 Y76.76 E2.43053
G1 X93.574 Y76.928 E2.44797
G1 F1690.7 X93.311 Y77.313 E2.4684
G1 F1647 X93.228 Y77.804 E2.4908
G1 F1703.6 X93.087 Y78.259 E2.51151
G1 X92.824 Y78.872 E2.54051
G1 X92.731 Y78.232 E2.56863
G1 X92.709 Y77.761 E2.58914
G1 F1643.9 X92.756 Y77.242 E2.61262
G1 F1687.5 X92.601 Y76.8 E2.63318
G1 F1800 X92.232 Y76.524 E2.65215
G1 X91.659 Y76.382 E2.67644
G1 X91.042 Y76.202 E2.70289
G1 X90.627 Y76.27 E2.7202
G1 F1690.7 X90.273 Y76.575 E2.74067
G1 F1650 X90.057 Y77.046 E2.76394
G1 F1706.9 X89.804 Y77.441 E2.78429
G1 X89.399 Y77.956 E2.81273
G1 X89.472 Y77.34 E2.83965
G1 X89.581 Y76.835 E2.86207
G1 F1647 X89.757 Y76.363 E2.88473
G1 F1690.7 X89.722 Y75.896 E2.90525
G1 F1800 X89.475 Y75.553 E2.92264
G1 X88.915 Y75.246 E2.94892
G1 X88.411 Y74.941 E2.97317
G1 X88.046 Y74.827 E2.98891
G1 F1690.7 X87.529 Y75.076 E3.01405
G1 F1650 X87.197 Y75.476 E3.03739
G1 F1706.9 X86.855 Y75.79 E3.05754
G1 X86.331 Y76.18 E3.08589
G1 X86.568 Y75.577 E3.114
G1 X86.783 Y75.164 E3.13421
G1 F1650 X87.086 Y74.737 E3.15772
G1 F1690.7 X87.194 Y74.172 E3.18292
G1 F1800 X86.979 Y73.84 E3.1992
G1 X86.563 Y73.44 E3.22295
G1 X86.119 Y72.979 E3.24929
G1 X85.726 Y72.83 E3.26659
G1 F1690.7 X85.267 Y72.916 E3.28705
G1 F1650 X84.843 Y73.217 E3.31039
G1 F1706.9 X84.44 Y73.428 E3.33014
G1 X83.823 Y73.674 E3.35896
G1 X84.213 Y73.148 E3.38738
G1 X84.523 Y72.81 E3.40729
G1 F1650 X84.928 Y72.474 E3.43091
G1 F1690.7 X85.176 Y71.956 E3.45608
G1 F1800 X85.06 Y71.589 E3.47192
G1 X84.757 Y71.087 E3.49605
G1 X84.475 Y70.575 E3.5201
G1 X84.216 Y70.292 E3.53589
G1 F1687.5 X83.645 Y70.246 E3.56104
G1 F1647 X83.155 Y70.425 E3.5845
G1 F1706.9 X82.671 Y70.53 E3.606
G1 X82.052 Y70.603 E3.63305
G1 X82.556 Y70.203 E3.66097
G1 X82.952 Y69.949 E3.68139
G1 F1647 X83.431 Y69.729 E3.7051
G1 F1687.5 X83.733 Y69.374 E3.72556
G1 F1800 X83.794 Y68.956 E3.74294
G1 X83.621 Y68.343 E3.76916
G1 X83.468 Y67.728 E3.79524
G1 X83.202 Y67.402 E3.81255
G1 F1687.5 X82.762 Y67.247 E3.83303
G1 F1647 X82.257 Y67.294 E3.85585
G1 F1706.9 X81.789 Y67.274 E3.87617
G1 X81.319 Y67.207 E3.89678
G1 X81.181 Y67.173 E3.90295
G1 X81.298 Y67.108 E3.90876
G1 X81.725 Y66.923 E3.92895
G1 X82.176 Y66.78 E3.94948
G1 F1647 X82.689 Y66.693 E3.97289
G1 F1687.5 X83.075 Y66.429 E3.99342
G1 F1800 X83.243 Y66.041 E4.01082
G1 X83.24 Y65.068 E4.05086
G1 X83.297 Y64.215 E4.08604
G1 X83.411 Y63.4 E4.11991
G1 X83.606 Y62.529 E4.15665
G1 X83.845 Y61.733 E4.19085
G1 X84.155 Y60.931 E4.22624
G1 X84.518 Y60.161 E4.26127
G1 X84.939 Y59.422 E4.29627
G1 X85.414 Y58.716 E4.33129
G1 X85.941 Y58.046 E4.36637
G1 X86.52 Y57.415 E4.40162
G1 X87.148 Y56.823 E4.43713
G1 X87.8 Y56.301 E4.47151
G1 X88.505 Y55.816 E4.50672
G1 X89.237 Y55.389 E4.5416
G1 X90.007 Y55.014 E4.57685
G1 X90.805 Y54.696 E4.6122
G1 X91.612 Y54.444 E4.64699
G1 X92.42 Y54.256 E4.68113
G1 X93.285 Y54.121 E4.71716
G1 X94.133 Y54.055 E4.75217
G1 X94.98 Y54.052 E4.78703
G1 X95.828 Y54.112 E4.82201
G1 X96.696 Y54.24 E4.85812
G1 X97.502 Y54.423 E4.89214
G1 X98.314 Y54.67 E4.92707
G1 X99.113 Y54.982 E4.96237
G1 X99.881 Y55.349 E4.9974
G1 X100.621 Y55.773 E5.0325
G1 X101.323 Y56.249 E5.0674
G1 X101.991 Y56.78 E5.10252
G1 X102.615 Y57.357 E5.1375
G1 X103.196 Y57.981 E5.17259
G1 X103.728 Y58.647 E5.20767
G1 X104.209 Y59.349 E5.24269
G1 X104.635 Y60.085 E5.27769
G1 X105.007 Y60.855 E5.31288
G1 X105.406 Y61.868 E5.35769
G1 X105.793 Y62.137 E5.37708
G1 X124.428 Y62.137 E6.144
G1 F1538.9 X124.845 Y62.221 E6.16448
G1 F1364.5 X125.31 Y62.21 E6.18973
G1 F1387.9 X125.731 Y62.236 E6.21224
G1 F1385.7 X126.147 Y62.315 E6.23488
G1 F1387.9 X126.519 Y62.434 E6.25573
G1 F1390 X126.887 Y62.608 E6.27742
G1 F1385.7 X127.226 Y62.824 E6.29891
G1 F1383.5 X127.534 Y63.079 E6.32032
G1 F1385.7 X127.807 Y63.366 E6.34149
G1 F1387.9 X128.042 Y63.691 E6.3629
G1 F1385.7 X128.235 Y64.045 E6.38446
G1 X128.387 Y64.425 E6.40633
G1 F1387.9 X128.484 Y64.804 E6.42722
G1 X128.534 Y65.203 E6.44868
G1 F1383.5 X128.534 Y65.602 E6.47004
G1 F1387.9 X128.484 Y66.01 E6.49198
G1 X128.388 Y66.385 E6.51265
G1 F1385.7 X128.236 Y66.767 E6.53462
G1 F1383.5 X128.043 Y67.12 E6.55617
G1 F1385.7 X127.807 Y67.446 E6.57768
G1 X127.538 Y67.729 E6.59855
G1 F1383.5 X127.223 Y67.99 E6.62046
G1 F1387.9 X126.888 Y68.204 E6.64167
G1 F1390 X126.519 Y68.379 E6.66344
G1 F1387.9 X126.146 Y68.498 E6.68434
G1 F1385.7 X125.744 Y68.575 E6.70622
G1 F1387.9 X125.32 Y68.602 E6.7289
G1 F1354.1 X124.752 Y68.586 E6.75998
G1 F1416.5 X124.357 Y68.675 E6.78116
G1 F1541.5 X122.149 Y68.675 E6.88726
G1 F1571.4 X119.941 Y68.675 E6.99135
G1 F1602.5 X117.733 Y68.675 E7.09342
G1 F1634.9 X115.525 Y68.675 E7.19346
G1 F1671.7 X113.317 Y68.675 E7.29131
G1 F1706.9 X111.109 Y68.675 E7.38714
G1 F1743.6 X108.901 Y68.675 E7.48094
G1 F1782 X106.693 Y68.675 E7.57273
G1 F1800 X106.363 Y68.809 E7.58739
G1 X106.125 Y69.105 E7.60302
G1 X106.059 Y69.369 E7.61422
;;retract;;
G1 F2400 E7.05422
G1 X106.307 Y69.965 E6.98069
G1 X106.726 Y70.248 E6.92312
G1 X107.173 Y70.619 E6.857
G1 X106.905 Y70.588 E6.82622
G1 F2400 E6.81422
G0 F4800 X106.537 Y69.403
;TYPE:WALL-OUTER
G1 F2400 E7.61422
G1 F1800 X106.614 Y69.592 E7.6219
G1 X107.021 Y69.87 E7.64045
G1 X107.391 Y70.179 E7.6586
G1 X107.725 Y70.511 E7.67633
G1 X107.935 Y70.759 E7.68856
G1 X107.814 Y71.051 E7.70046
G1 X107.435 Y71.083 E7.71477
G1 X106.928 Y71.073 E7.73386
G1 X106.441 Y71.016 E7.75232
G1 X105.909 Y70.901 E7.77281
G1 X105.323 Y70.709 E7.79602
G1 X105.148 Y70.785 E7.8032
G1 X104.851 Y71.327 E7.82647
G1 X104.563 Y71.801 E7.84735
G1 X104.523 Y72.019 E7.85569
G1 X105.012 Y72.456 E7.88038
G1 X105.359 Y72.834 E7.89969
G1 X105.666 Y73.245 E7.919
G1 X105.931 Y73.686 E7.93837
G1 X106.093 Y74.028 E7.95261
G1 X105.9 Y74.278 E7.9645
G1 X105.528 Y74.212 E7.97872
G1 X105.044 Y74.073 E7.99768
G1 X104.556 Y73.88 E8.01743
G1 X104.1 Y73.641 E8.03681
G1 X103.557 Y73.286 E8.06123
G1 X103.374 Y73.357 E8.06862
G1 X102.969 Y73.779 E8.09064
G1 X102.56 Y74.17 E8.11194
G1 X102.474 Y74.366 E8.12
G1 X102.832 Y74.909 E8.14448
G1 X103.07 Y75.366 E8.16388
G1 X103.263 Y75.854 E8.18363
G1 X103.402 Y76.338 E8.20259
G1 X103.468 Y76.71 E8.21681
G1 X103.218 Y76.903 E8.2287
G1 X102.876 Y76.741 E8.24294
G1 X102.437 Y76.477 E8.26222
G1 X102.024 Y76.169 E8.28162
G1 X101.646 Y75.822 E8.30093
G1 X101.213 Y75.338 E8.32538
G1 X101.029 Y75.354 E8.33233
G1 X100.516 Y75.661 E8.35484
G1 X100.02 Y75.933 E8.37613
G1 X99.889 Y76.096 E8.384
G1 X100.091 Y76.719 E8.40865
G1 X100.206 Y77.251 E8.42914
G1 X100.263 Y77.73 E8.4473
G1 X100.273 Y78.245 E8.46669
G1 X100.241 Y78.623 E8.48097
G1 X99.951 Y78.744 E8.4928
G1 X99.662 Y78.499 E8.50706
G1 X99.303 Y78.128 E8.52649
G1 X98.987 Y77.726 E8.54574
G1 X98.708 Y77.289 E8.56526
G1 X98.414 Y76.709 E8.58974
G1 X98.212 Y76.683 E8.5974
G1 X97.658 Y76.844 E8.61912
G1 X97.103 Y76.982 E8.64065
G1 X96.941 Y77.106 E8.64833
G1 X96.977 Y77.753 E8.67272
G1 X96.954 Y78.269 E8.69216
G1 X96.879 Y78.785 E8.71179
G1 X96.756 Y79.277 E8.73088
G1 X96.628 Y79.632 E8.74509
G1 X96.316 Y79.673 E8.75693
G1 X96.1 Y79.363 E8.77115
G1 X95.851 Y78.912 E8.79055
G1 X95.647 Y78.439 E8.80994
G1 X95.494 Y77.952 E8.82915
G1 X95.359 Y77.312 E8.85377
G1 X95.164 Y77.235 E8.86167
G1 X94.596 Y77.247 E8.88305
G1 X94.013 Y77.236 E8.905
G1 X93.833 Y77.314 E8.91239
