;FLAVOR:Marlin
;TIME:8486.41
;Filament used:12.8729m
;Layer Height:0.2
;MINX:59.448
;MINY:66.353
;MINZ:0.2
;MAXX:160.552
;MAXY:167.468
;MAXZ:64.8
;OuterWall Time:1271.54
;InnerWall Time:875.205
;Skin Time:3122.03
;Support Time:1191.54
;SkirtBrim Time:74.7234
;Infill Time:588.12
;Support Infills Time:0
;Combing Time:559.812
;Retraction Time:783.014
;PrimeTower Time:20.4269
;;;;;;;;;;;;;;;;;;;;;;;;;;;;;;;;;;;;;;;;;;;;;;;;;;;;;;;;;;;
;Creality Print GCode Generated by CXEngine
;CRSLICE_GIT_HASH:6b8d75d
;Creality Print Version : V4.3.7.6625
;CXEngine Release Time:2023-09-15 20:42:32
;Gcode Generated Time:2023-11-02 22:18:50
;----------Machine Config--------------
;Machine Name:Ender-3 V3 SE
;Machine Height:250
;Machine Width:220
;Machine Depth:220
;Material Type:PLA
;Material Name:CR-PLA_1.75
;Number of Extruders:1
;ExtruderParams[0] Nozzle Diameter:1000
;----------Profile Config---------------
;Wall Thickness:0.8
;Top/Bottom Thickness:0.8
;Out Wall Line Width:0.42
;Inner Wall Line Width:0.45
;Inital Height:200
;Wall Line Count:2
;Infill Line Distance:8
;Infill Pattern:grid
;Infill Sparse Density:10
;Infill Wipe Distance:0
;Print Temperature:205
;Bed Temperature:60
;Support Enable:false
;Support Density:15
;Support Angle:60
;Adhesion Type:autobrim
;machine is belt:false
;machine belt offset:10
;machine belt offset Y:0
;Raft Base Line Spacing:1.6
;Wait Heatup Sync:true
;Enable Ironing:false
;Material Type:PLA
;Max volumetric speed:20
;Material Diameter:1.75
;Material Density:1.24
;Filament Cost:0.3
;Filament Weight:0
;Preview Img Type:png
;Screen Size:Sermoon D3
;----------Shell Config----------------
;Outer Wall Wipe Distance:200
;Outer Inset First:false
;Infill Before Walls:false
;Infill Overlap:0.04
;Fill Gaps Between Walls:everywhere
;Minimum Infill Area:15
;Top Surface Skin Layer:0
;Top Layers:4
;Z Seam Alignment:sharpest_corner
;Seam Corner Preference:z_seam_corner_inner
;Z Seam X:110
;Z Seam Y:220
;Horizontal Expansion:0
;Top/Bottom Pattern:zigzag
;Ironing Pattern:zigzag
;Vase Model:false
;----------Support Config----------------
;Support Type:everywhere
;Support Pattern:zigzag
;Support Infill Layer Thickness:0.15
;Minimum Support Area:1
;Enable Support Roof:true
;Support Roof Thickness:0.8
;Support Roof Pattern:lines
;Connect Support Lines:0
;Connect Support ZigZags:1
;Minimum Support X/Y Distance:0.2
;Support Line Distance:2.67
; ---------PrintSpeed & Travel----------
;Enable Print Cool:true
;Avoid Printed Parts Traveling:true
;Enable Retraction:true
;Retraction Distance:0.8
;Retraction Speed:40
;Retraction Prime Speed:40
;Maximum Retraction Count:100
;Minimum Extrusion Distance Window:0.8
;Z Hop When Retracted:false
;Z Hop Height:0.2
;Retract Before Outer Wall:true

;Outer Wall Speed:60
;Inner Wall Speed:90
;Infill Speed:180
;Top/Bottom Speed:50
;Travel Speed:150
;Initial Layer Speed:30
;Skirt/Brim Speed:25
;Prime Tower Speed:60
;Outer Wall Acceleration:1000
;Inner Wall Acceleration:2000
;Infill Acceleration:2500
;Top/Bottom Acceleration:2500
;Travel Acceleration:2500
;Initial Layer Print Acceleration:500
;Initial Layer Travel Acceleration:500
;Skirt/Brim Acceleration:500
;Combing Mode:noskin
; --------SpecialModel&Mesh Fixes--------
;Union Overlapping Volum:true
;Remove All Holes:false
;Maximum Travel Resolution:0.25
;Maximum Deviation:0.05
;Maximum Model Angle:0.872767
;IS Mold Print:false
;Make Overhang Printable:false
;Enable Coasting:false
;Coasting Volumes:0.064
;Coasting Speed:0.9
;Raft AirGap:0.25
;Layer0 ZOverLap:0.13
;Adaptive Layers:0
;---------------------End of Head--------------------------
M140 S60
M105
M190 S60
M104 S205
M82 ;absolute extrusion mode
M220 S100 ;Reset Feedrate
M221 S100 ;Reset Flowrate

G28 ;Home

G92 E0 ;Reset Extruder
G1 Z2.0 F3000 ;Move Z Axis up
G1 X10.1 Y20 Z0.28 F5000.0 ;Move to start position
M109 S205.000000
G1 X10.1 Y145.0 Z0.28 F1500.0 E15 ;Draw the first line
G1 X10.4 Y145.0 Z0.28 F5000.0 ;Move to side a little
G1 X10.4 Y20 Z0.28 F1500.0 E30 ;Draw the second line
G92 E0  ;Reset Extruder
G1 E-1.0000 F1800 ;Retract a bit
G1 Z2.0 F3000 ;Move Z Axis up
G1 E0.0000 F1800 

G92 E0
G92 E0
G1 F2400 E-0.8
;LAYER_COUNT:324

;LAYER:0
M106 S0
M204 S500
G0 F4800 X75.432 Y80.654 Z0.2
;TYPE:SKIRT
G1 F2400 E0
G1 F1500 X73.286 Y82.829 E0.11736
G1 X71.214 Y85.207 E0.23851
G1 X69.411 Y87.551 E0.3521
G1 X67.696 Y90.079 E0.46944
G1 X66.091 Y92.795 E0.59062
G1 X64.745 Y95.428 E0.70421
G1 X63.483 Y98.317 E0.8253
G1 X62.436 Y101.188 E0.94268
G1 X61.591 Y104.022 E1.05628
G1 X60.895 Y106.996 E1.1736
G1 X60.369 Y110.107 E1.29479
G1 X60.054 Y113.047 E1.40836
G1 X59.91 Y116.198 E1.52952
G1 X59.955 Y119.155 E1.64312
G1 X60.195 Y122.297 E1.76416
G1 X60.6 Y125.226 E1.87773
G1 X61.199 Y128.224 E1.99516
G1 X62.007 Y131.271 E2.11625
G1 X62.938 Y134.079 E2.22988
G1 X64.072 Y136.915 E2.3472
G1 X65.422 Y139.767 E2.4684
G1 X66.847 Y142.356 E2.58191
G1 X68.534 Y145.022 E2.7031
G1 X70.265 Y147.419 E2.81667
G1 X72.263 Y149.859 E2.9378
G1 X74.343 Y152.098 E3.05519
G1 X76.554 Y154.206 E3.17253
G1 X78.89 Y156.176 E3.2899
G1 X81.341 Y157.999 E3.40723
G1 X83.816 Y159.619 E3.52086
G1 X86.468 Y161.136 E3.63821
G1 X89.209 Y162.488 E3.75561
G1 X92.024 Y163.671 E3.87289
G1 X94.91 Y164.68 E3.99033
G1 X97.944 Y165.534 E4.11139
G1 X100.932 Y166.179 E4.22881
G1 X103.953 Y166.64 E4.34619
G1 X106.996 Y166.916 E4.46356
G1 X110.049 Y167.006 E4.58088
G1 X113.103 Y166.91 E4.69824
G1 X116.146 Y166.628 E4.81563
G1 X119.165 Y166.161 E4.93297
G1 X122.056 Y165.534 E5.0466
G1 X125.09 Y164.68 E5.16766
G1 X127.883 Y163.706 E5.28128
G1 X130.791 Y162.488 E5.40238
G1 X133.532 Y161.136 E5.51978
G1 X136.1 Y159.672 E5.63332
G1 X138.659 Y157.999 E5.75076
G1 X141.11 Y156.176 E5.86809
G1 X143.446 Y154.206 E5.98546
G1 X145.726 Y152.028 E6.10658
G1 X147.737 Y149.859 E6.22019
G1 X149.735 Y147.419 E6.34133
G1 X151.466 Y145.022 E6.45489
G1 X153.153 Y142.356 E6.57608
G1 X154.578 Y139.767 E6.68959
G1 X155.928 Y136.915 E6.81079
G1 X157.029 Y134.172 E6.92433
G1 X157.993 Y131.271 E7.04175
G1 X158.78 Y128.321 E7.15902
G1 X159.4 Y125.226 E7.28027
G1 X159.805 Y122.297 E7.39384
G1 X160.045 Y119.153 E7.51496
G1 X160.09 Y116.197 E7.62851
G1 X159.946 Y113.046 E7.74967
G1 X159.631 Y110.105 E7.86329
G1 X159.123 Y107.093 E7.98061
G1 X158.409 Y104.021 E8.10176
G1 X157.533 Y101.093 E8.21915
G1 X156.517 Y98.316 E8.33273
G1 X155.298 Y95.517 E8.45
G1 X153.908 Y92.794 E8.56743
G1 X152.356 Y90.162 E8.6848
G1 X150.589 Y87.551 E8.80589
G1 X148.785 Y85.206 E8.91954
G1 X146.713 Y82.828 E9.04069
G1 X144.567 Y80.653 E9.15805
G1 X142.368 Y78.677 E9.27161
G1 X139.977 Y76.775 E9.38896
G1 X137.393 Y74.969 E9.51006
G1 X134.784 Y73.377 E9.62745
G1 X132.083 Y71.946 E9.74486
G1 X129.393 Y70.722 E9.85838
G1 X126.539 Y69.626 E9.97581
G1 X123.532 Y68.678 E10.09692
G1 X120.664 Y67.964 E10.21044
G1 X117.659 Y67.405 E10.32785
G1 X114.626 Y67.03 E10.44524
G1 X111.504 Y66.838 E10.56538
G1 X110.026 Y66.815 E10.62216
G1 X108.497 Y66.838 E10.6809
G1 X105.374 Y67.03 E10.80108
G1 X102.341 Y67.405 E10.91847
G1 X99.432 Y67.944 E11.03211
G1 X96.468 Y68.678 E11.1494
G1 X93.553 Y69.593 E11.26675
G1 X90.607 Y70.722 E11.38794
G1 X87.917 Y71.946 E11.50145
G1 X85.13 Y73.426 E11.62266
G1 X82.524 Y75.023 E11.74006
G1 X80.101 Y76.717 E11.85362
G1 X77.632 Y78.677 E11.97471
G1 X75.432 Y80.654 E12.08832
G0 F4800 X75.741 Y80.998
G1 F1500 X73.567 Y83.205 E12.20732
G1 X71.625 Y85.434 E12.32087
G1 X69.737 Y87.889 E12.43983
G1 X68.079 Y90.338 E12.55343
G1 X66.537 Y92.943 E12.66971
G1 X65.125 Y95.702 E12.78875
G1 X63.943 Y98.41 E12.90225
G1 X62.901 Y101.253 E13.01855
G1 X62.034 Y104.154 E13.13485
G1 X61.332 Y107.17 E13.2538
G1 X60.838 Y110.086 E13.3674
G1 X60.508 Y113.166 E13.48638
G1 X60.373 Y116.12 E13.59997
G1 X60.42 Y119.218 E13.71898
G1 X60.645 Y122.164 E13.83247
G1 X61.058 Y125.163 E13.94875
G1 X61.667 Y128.203 E14.06784
G1 X62.426 Y131.059 E14.18135
G1 X63.4 Y134 E14.30035
G1 X64.501 Y136.743 E14.41388
G1 X65.827 Y139.544 E14.53292
G1 X67.252 Y142.133 E14.64643
G1 X68.869 Y144.693 E14.76274
G1 X70.682 Y147.204 E14.8817
G1 X72.555 Y149.492 E14.99527
G1 X74.662 Y151.764 E15.1143
G1 X76.8 Y153.806 E15.22786
G1 X79.166 Y155.805 E15.34683
G1 X81.594 Y157.612 E15.46309
G1 X84.129 Y159.27 E15.57944
G1 X86.759 Y160.767 E15.69568
G1 X89.476 Y162.102 E15.81196
G1 X92.269 Y163.27 E15.92824
G1 X95.062 Y164.244 E16.04186
G1 X97.974 Y165.066 E16.15808
G1 X100.933 Y165.71 E16.2744
G1 X103.926 Y166.172 E16.39073
G1 X106.94 Y166.45 E16.50699
G1 X109.965 Y166.544 E16.62324
G1 X113.06 Y166.45 E16.74217
G1 X116.075 Y166.172 E16.85848
G1 X118.997 Y165.723 E16.97203
G1 X121.958 Y165.083 E17.08839
G1 X124.871 Y164.265 E17.20461
G1 X127.798 Y163.245 E17.32367
G1 X130.524 Y162.102 E17.43721
G1 X133.241 Y160.767 E17.55349
G1 X135.931 Y159.232 E17.67245
G1 X138.406 Y157.612 E17.78608
G1 X140.834 Y155.805 E17.90233
G1 X143.2 Y153.806 E18.02131
G1 X145.338 Y151.764 E18.13487
G1 X147.445 Y149.492 E18.25389
G1 X149.318 Y147.204 E18.36746
G1 X151.131 Y144.693 E18.48643
G1 X152.712 Y142.194 E18.60001
G1 X154.173 Y139.544 E18.71625
G1 X155.471 Y136.807 E18.8326
G1 X156.623 Y133.933 E18.95153
G1 X157.574 Y131.059 E19.06781
G1 X158.348 Y128.133 E19.18407
G1 X158.942 Y125.163 E19.30041
G1 X159.355 Y122.164 E19.41669
G1 X159.58 Y119.216 E19.53025
G1 X159.628 Y116.19 E19.6465
G1 X159.492 Y113.165 E19.76281
G1 X159.162 Y110.084 E19.88183
G1 X158.655 Y107.101 E19.99805
G1 X157.984 Y104.221 E20.11164
G1 X157.099 Y101.252 E20.23064
G1 X156.083 Y98.475 E20.34422
G1 X154.843 Y95.638 E20.46315
G1 X153.462 Y92.942 E20.5795
G1 X151.958 Y90.397 E20.69305
G1 X150.222 Y87.833 E20.81199
G1 X148.374 Y85.433 E20.92834
G1 X146.432 Y83.204 E21.04189
G1 X144.258 Y80.997 E21.16089
G1 X142.005 Y78.975 E21.27717
G1 X139.633 Y77.094 E21.39345
G1 X137.211 Y75.401 E21.50695
G1 X134.568 Y73.785 E21.62595
G1 X131.955 Y72.398 E21.73958
G1 X129.136 Y71.115 E21.85855
G1 X126.308 Y70.033 E21.97485
G1 X123.488 Y69.145 E22.08841
G1 X120.483 Y68.398 E22.20735
G1 X117.574 Y67.859 E22.32099
G1 X114.499 Y67.482 E22.43999
G1 X111.549 Y67.302 E22.55351
G1 X110.019 Y67.277 E22.61229
G1 X108.504 Y67.3 E22.67049
G1 X105.501 Y67.482 E22.78605
G1 X102.426 Y67.859 E22.90505
G1 X99.448 Y68.412 E23.02139
G1 X96.512 Y69.145 E23.13763
G1 X93.692 Y70.033 E23.25119
G1 X90.864 Y71.115 E23.36749
G1 X88.045 Y72.398 E23.48646
G1 X85.432 Y73.785 E23.60009
G1 X82.789 Y75.401 E23.71909
G1 X80.366 Y77.095 E23.83265
G1 X77.995 Y78.975 E23.94887
G1 X75.741 Y80.998 E24.06521
G0 F4800 X76.019 Y81.371
G1 F1500 X73.915 Y83.509 E24.18043
G1 X71.947 Y85.77 E24.29557
G1 X70.119 Y88.148 E24.41078
G1 X68.438 Y90.633 E24.52601
G1 X66.934 Y93.178 E24.63956
G1 X65.549 Y95.887 E24.75643
G1 X64.351 Y98.634 E24.87154
G1 X63.335 Y101.412 E24.98516
G1 X62.466 Y104.327 E25.102
G1 X61.795 Y107.206 E25.21555
G1 X61.288 Y110.205 E25.33238
G1 X60.973 Y113.145 E25.44595
G1 X60.834 Y116.184 E25.5628
G1 X60.881 Y119.183 E25.67801
G1 X61.106 Y122.129 E25.7915
G1 X61.523 Y125.141 E25.9083
G1 X62.113 Y128.084 E26.02359
G1 X62.884 Y130.98 E26.1387
G1 X63.829 Y133.828 E26.25396
G1 X64.947 Y136.61 E26.36913
G1 X66.232 Y139.321 E26.48437
G1 X67.678 Y141.947 E26.59951
G1 X69.259 Y144.446 E26.7131
G1 X71.014 Y146.878 E26.8283
G1 X72.941 Y149.231 E26.94512
G1 X74.981 Y151.43 E27.06034
G1 X77.119 Y153.472 E27.1739
G1 X79.442 Y155.435 E27.29072
G1 X81.847 Y157.226 E27.4059
G1 X84.358 Y158.869 E27.52116
G1 X86.963 Y160.353 E27.63632
G1 X89.617 Y161.659 E27.74993
G1 X92.381 Y162.819 E27.86507
G1 X95.254 Y163.82 E27.98193
G1 X98.099 Y164.621 E28.09546
G1 X101.073 Y165.266 E28.21235
G1 X103.996 Y165.715 E28.32594
G1 X107.024 Y165.993 E28.44274
G1 X110.021 Y166.083 E28.55791
G1 X112.976 Y165.993 E28.67147
G1 X116.005 Y165.715 E28.7883
G1 X118.927 Y165.266 E28.90186
G1 X121.901 Y164.621 E29.01875
G1 X124.746 Y163.82 E29.13228
G1 X127.619 Y162.819 E29.24914
G1 X130.383 Y161.659 E29.36428
G1 X133.037 Y160.353 E29.47789
G1 X135.642 Y158.869 E29.59305
G1 X138.153 Y157.226 E29.70831
G1 X140.558 Y155.435 E29.82349
G1 X142.881 Y153.472 E29.94031
G1 X145.019 Y151.43 E30.05388
G1 X147.087 Y149.199 E30.17072
G1 X148.986 Y146.878 E30.28591
G1 X150.741 Y144.446 E30.40111
G1 X152.322 Y141.947 E30.5147
G1 X153.787 Y139.284 E30.63144
G1 X155.07 Y136.571 E30.74672
G1 X156.171 Y133.828 E30.86025
G1 X157.128 Y130.94 E30.97711
G1 X157.887 Y128.084 E31.09062
G1 X158.484 Y125.1 E31.20751
G1 X158.894 Y122.129 E31.32271
G1 X159.121 Y119.139 E31.43789
G1 X159.166 Y116.183 E31.55145
G1 X159.027 Y113.144 E31.6683
G1 X158.712 Y110.203 E31.78191
G1 X158.205 Y107.206 E31.89866
G1 X157.523 Y104.285 E32.01388
G1 X156.665 Y101.411 E32.12909
G1 X155.649 Y98.634 E32.24267
G1 X154.451 Y95.887 E32.35778
G1 X153.065 Y93.177 E32.4747
G1 X151.561 Y90.632 E32.58825
G1 X149.856 Y88.114 E32.70506
G1 X148.026 Y85.737 E32.82028
G1 X146.084 Y83.508 E32.93384
G1 X143.98 Y81.37 E33.04906
G1 X141.718 Y79.337 E33.16588
G1 X139.402 Y77.498 E33.27947
G1 X136.911 Y75.757 E33.39621
G1 X134.351 Y74.193 E33.51144
G1 X131.7 Y72.787 E33.6267
G1 X129.01 Y71.563 E33.74022
G1 X126.169 Y70.474 E33.85709
G1 X123.349 Y69.586 E33.97065
G1 X120.44 Y68.861 E34.0858
G1 X117.448 Y68.307 E34.20268
G1 X114.471 Y67.943 E34.31788
G1 X111.49 Y67.762 E34.4326
G1 X110.012 Y67.739 E34.48938
G1 X108.48 Y67.763 E34.54823
G1 X105.529 Y67.943 E34.66179
G1 X102.552 Y68.307 E34.77699
G1 X99.56 Y68.861 E34.89387
G1 X96.651 Y69.586 E35.00903
G1 X93.831 Y70.474 E35.12259
G1 X90.99 Y71.563 E35.23946
G1 X88.3 Y72.787 E35.35298
G1 X85.612 Y74.214 E35.46987
G1 X83.054 Y75.78 E35.58508
G1 X80.597 Y77.499 E35.70026
G1 X78.282 Y79.337 E35.8138
G1 X76.019 Y81.371 E35.93067
G0 F4800 X76.513 Y81.857
G1 F1500 X74.438 Y83.964 E36.04426
G1 X72.496 Y86.193 E36.15782
G1 X70.693 Y88.537 E36.27141
G1 X69.035 Y90.986 E36.38501
G1 X67.531 Y93.531 E36.49856
G1 X66.184 Y96.164 E36.61216
G1 X65.002 Y98.872 E36.72565
G1 X63.986 Y101.65 E36.83927
G1 X63.141 Y104.484 E36.95286
G1 X62.471 Y107.363 E37.0664
G1 X61.977 Y110.279 E37.18
G1 X61.662 Y113.219 E37.29358
G1 X61.527 Y116.173 E37.40716
G1 X61.572 Y119.13 E37.52076
G1 X61.797 Y122.076 E37.63425
G1 X62.202 Y125.005 E37.74782
G1 X62.783 Y127.906 E37.86147
G1 X63.542 Y130.762 E37.97498
G1 X64.472 Y133.57 E38.08859
G1 X65.573 Y136.313 E38.20213
G1 X66.839 Y138.987 E38.31577
G1 X68.264 Y141.576 E38.42928
G1 X69.845 Y144.075 E38.54287
G1 X71.576 Y146.472 E38.65644
G1 X73.449 Y148.76 E38.77001
G1 X75.46 Y150.929 E38.88363
G1 X77.598 Y152.971 E38.99719
G1 X79.856 Y154.879 E39.11074
G1 X82.227 Y156.646 E39.22432
G1 X84.701 Y158.267 E39.33793
G1 X87.269 Y159.731 E39.45147
G1 X89.923 Y161.037 E39.56509
G1 X92.649 Y162.179 E39.67861
G1 X95.442 Y163.153 E39.79223
G1 X98.287 Y163.954 E39.90576
G1 X101.178 Y164.581 E40.01939
G1 X104.101 Y165.03 E40.13298
G1 X107.045 Y165.3 E40.24654
G1 X110 Y165.39 E40.36009
G1 X112.955 Y165.3 E40.47365
G1 X115.9 Y165.03 E40.58724
G1 X118.822 Y164.581 E40.7008
G1 X121.713 Y163.954 E40.81443
G1 X124.558 Y163.153 E40.92795
G1 X127.351 Y162.18 E41.04156
G1 X130.077 Y161.037 E41.1551
G1 X132.731 Y159.731 E41.26872
G1 X135.298 Y158.266 E41.38225
G1 X137.773 Y156.646 E41.49587
G1 X140.144 Y154.879 E41.60945
G1 X142.402 Y152.971 E41.723
G1 X144.54 Y150.929 E41.83656
G1 X146.551 Y148.76 E41.95017
G1 X148.424 Y146.472 E42.06375
G1 X150.155 Y144.075 E42.17732
G1 X151.736 Y141.576 E42.2909
G1 X153.161 Y138.987 E42.40442
G1 X154.427 Y136.313 E42.51806
G1 X155.527 Y133.57 E42.63158
G1 X156.458 Y130.762 E42.74521
G1 X157.216 Y127.906 E42.85871
G1 X157.798 Y125.005 E42.97236
G1 X158.203 Y122.076 E43.08593
G1 X158.428 Y119.128 E43.1995
G1 X158.473 Y116.172 E43.31306
G1 X158.338 Y113.218 E43.42664
G1 X158.023 Y110.277 E43.54025
G1 X157.53 Y107.363 E43.65377
G1 X156.859 Y104.483 E43.76736
G1 X156.014 Y101.649 E43.88095
G1 X154.998 Y98.872 E43.99453
G1 X153.815 Y96.164 E44.10804
G1 X152.468 Y93.53 E44.22168
G1 X150.964 Y90.985 E44.33523
G1 X149.307 Y88.537 E44.44877
G1 X147.503 Y86.192 E44.56242
G1 X145.561 Y83.963 E44.67597
G1 X143.486 Y81.856 E44.78956
G1 X141.287 Y79.88 E44.90312
G1 X138.971 Y78.041 E45.01671
G1 X136.549 Y76.348 E45.13022
G1 X134.026 Y74.805 E45.24382
