;FLAVOR:Marlin
;TIME:382.963
;Filament used:0.48761m
;Layer Height:0.2
;MINX:90.737
;MINY:92.251
;MINZ:0.2
;MAXX:129.263
;MAXY:113.114
;MAXZ:4
;OuterWall Time:84.1782
;InnerWall Time:67.6315
;Skin Time:105.633
;Support Time:0
;SkirtBrim Time:0
;Infill Time:13.2008
;Support Infills Time:0
;Combing Time:45.2394
;Retraction Time:67.0804
;PrimeTower Time:0

;
;;;;;;;;;;;;;;;;;;;;;;;;;;;;;;;;;;;;;;;;;;;;;;;;;;;;;;;;;;;;;;;;;;;;;;;;;;;;
;Creality Print GCode Generated by CXEngine
;CRSLICE_GIT_HASH:6b8d75d
;Creality Print Version : V4.3.7.6625
;CXEngine Release Time:2023-09-15 20:42:32
;Gcode Generated Time:2023-11-03 22:27:51
;----------Machine Config--------------
;Machine Name:Ender-3 V3 SE
;Machine Height:250
;Machine Width:220
;Machine Depth:220
;Material Type:PLA
;Material Name:CR-PLA_1.75
;Number of Extruders:1
;ExtruderParams[0] Nozzle Diameter:1000
;----------Profile Config---------------
;Wall Thickness:0.8
;Top/Bottom Thickness:0.8
;Out Wall Line Width:0.42
;Inner Wall Line Width:0.45
;Inital Height:200
;Wall Line Count:2
;Infill Line Distance:8
;Infill Pattern:grid
;Infill Sparse Density:10
;Infill Wipe Distance:0
;Print Temperature:205
;Bed Temperature:60
;Support Enable:false
;Support Density:15
;Support Angle:60
;Adhesion Type:autobrim
;machine is belt:false
;machine belt offset:10
;machine belt offset Y:0
;Raft Base Line Spacing:1.6
;Wait Heatup Sync:true
;Enable Ironing:false
;Material Type:PLA
;Max volumetric speed:20
;Material Diameter:1.75
;Material Density:1.24
;Filament Cost:0.3
;Filament Weight:0
;Preview Img Type:png
;Screen Size:Sermoon D3
;----------Shell Config----------------
;Outer Wall Wipe Distance:200
;Outer Inset First:false
;Infill Before Walls:false
;Infill Overlap:0.04
;Fill Gaps Between Walls:everywhere
;Minimum Infill Area:15
;Top Surface Skin Layer:0
;Top Layers:4
;Z Seam Alignment:sharpest_corner
;Seam Corner Preference:z_seam_corner_inner
;Z Seam X:110
;Z Seam Y:220
;Horizontal Expansion:0
;Top/Bottom Pattern:zigzag
;Ironing Pattern:zigzag
;Vase Model:false
;----------Support Config----------------
;Support Type:everywhere
;Support Pattern:zigzag
;Support Infill Layer Thickness:0.15
;Minimum Support Area:1
;Enable Support Roof:true
;Support Roof Thickness:0.8
;Support Roof Pattern:lines
;Connect Support Lines:0
;Connect Support ZigZags:1
;Minimum Support X/Y Distance:0.2
;Support Line Distance:2.67
; ---------PrintSpeed & Travel----------
;Enable Print Cool:true
;Avoid Printed Parts Traveling:true
;Enable Retraction:true
;Retraction Distance:0.8
;Retraction Speed:40
;Retraction Prime Speed:40
;Maximum Retraction Count:100
;Minimum Extrusion Distance Window:0.8
;Z Hop When Retracted:false
;Z Hop Height:0.2
;Retract Before Outer Wall:true

;Outer Wall Speed:60
;Inner Wall Speed:90
;Infill Speed:180
;Top/Bottom Speed:50
;Travel Speed:150
;Initial Layer Speed:30
;Skirt/Brim Speed:25
;Prime Tower Speed:60
;Outer Wall Acceleration:1000
;Inner Wall Acceleration:2000
;Infill Acceleration:2500
;Top/Bottom Acceleration:2500
;Travel Acceleration:2500
;Initial Layer Print Acceleration:500
;Initial Layer Travel Acceleration:500
;Skirt/Brim Acceleration:500
;Combing Mode:noskin
; --------SpecialModel&Mesh Fixes--------
;Union Overlapping Volum:true
;Remove All Holes:false
;Maximum Travel Resolution:0.25
;Maximum Deviation:0.05
;Maximum Model Angle:0.872767
;IS Mold Print:false
;Make Overhang Printable:false
;Enable Coasting:false
;Coasting Volumes:0.064
;Coasting Speed:0.9
;Raft AirGap:0.25
;Layer0 ZOverLap:0.13
;Adaptive Layers:0
;---------------------End of Head--------------------------
M140 S60
M105
M190 S60
M104 S205
M82 ;absolute extrusion mode
M220 S100 ;Reset Feedrate
M221 S100 ;Reset Flowrate

G28 ;Home

G92 E0 ;Reset Extruder
G1 Z2.0 F3000 ;Move Z Axis up
G1 X10.1 Y20 Z0.28 F5000.0 ;Move to start position
M109 S205.000000
G1 X10.1 Y145.0 Z0.28 F1500.0 E15 ;Draw the first line
G1 X10.4 Y145.0 Z0.28 F5000.0 ;Move to side a little
G1 X10.4 Y20 Z0.28 F1500.0 E30 ;Draw the second line
G92 E0  ;Reset Extruder
G1 E-1.0000 F1800 ;Retract a bit
G1 Z2.0 F3000 ;Move Z Axis up
G1 E0.0000 F1800 

G92 E0
G92 E0
G1 F2400 E-0.8
;LAYER_COUNT:20

;LAYER:0
M106 S0
M204 S500
;MESH:0_1
G0 F4800 X92.168 Y94.979 Z0.2
;TYPE:WALL-INNER
G1 F2400 E0
G1 F1394.4 X92.351 Y94.644 E0.02028
G1 F1390 X92.571 Y94.348 E0.03993
G1 F1385.7 X92.759 Y94.159 E0.05419
G1 F1387.9 X92.96 Y93.983 E0.06845
G1 F1392.2 X93.292 Y93.77 E0.08943
G1 X93.704 Y93.594 E0.11327
G1 X94.091 Y93.501 E0.13445
G1 F1394.4 X94.503 Y93.464 E0.15643
G1 X94.923 Y93.503 E0.17884
G1 X95.329 Y93.603 E0.20105
G1 X95.713 Y93.774 E0.22338
G1 X96.034 Y93.979 E0.24362
G1 F1366.6 X96.356 Y94.248 E0.26636
G1 F1536.2 X96.543 Y94.615 E0.28623
G1 F1800 X96.593 Y94.69 E0.28994
G1 X96.777 Y95.033 E0.30595
G1 X96.903 Y95.405 E0.32212
G1 X96.97 Y95.787 E0.33808
G1 X96.97 Y96.254 E0.3573
G1 X96.904 Y96.635 E0.37321
G1 X96.773 Y97.016 E0.38979
G1 X96.593 Y97.351 E0.40544
G1 X96.549 Y97.416 E0.40867
G1 F1659.2 X96.338 Y97.806 E0.42847
G1 F1463.1 X96.032 Y98.062 E0.44867
G1 F1396.6 X95.724 Y98.261 E0.46812
G1 F1392.2 X95.348 Y98.428 E0.49001
G1 F1390 X94.944 Y98.54 E0.51236
G1 F1392.2 X94.509 Y98.576 E0.53558
G1 X94.08 Y98.542 E0.55848
G1 F1390 X93.713 Y98.449 E0.57866
G1 F1387.9 X93.341 Y98.299 E0.60007
G1 F1390 X92.96 Y98.057 E0.62412
G1 F1392.2 X92.664 Y97.801 E0.64494
G1 X92.386 Y97.452 E0.66869
G1 X92.171 Y97.068 E0.6921
G1 X92.029 Y96.674 E0.71439
G1 X91.959 Y96.268 E0.73631
G1 X91.952 Y95.871 E0.75744
G1 X91.958 Y95.782 E0.76218
G1 X92.026 Y95.374 E0.78419
G1 X92.168 Y94.979 E0.80653
;;retract;;
G1 F2400 E0.24653
G1 X92.571 Y94.348 E0.16126
G1 X92.759 Y94.159 E0.13093
G1 X92.96 Y93.983 E0.10049
G1 X93.292 Y93.77 E0.05558
G1 X93.59 Y93.643 E0.01853
G1 F2400 E0.00653
G0 F4800 X92.657 Y95.236
;TYPE:WALL-OUTER
G1 F2400 E0.80653
G1 F1800 X92.822 Y94.929 E0.81965
G1 X93.023 Y94.667 E0.83208
G1 X93.281 Y94.431 E0.84524
G1 X93.547 Y94.258 E0.85718
G1 X93.843 Y94.13 E0.86932
G1 X94.153 Y94.049 E0.88139
G1 X94.483 Y94.018 E0.89386
G1 X94.827 Y94.045 E0.90685
G1 X95.131 Y94.121 E0.91865
G1 X95.461 Y94.265 E0.9322
G1 X95.717 Y94.43 E0.94366
G1 X95.984 Y94.675 E0.95731
G1 X96.184 Y94.938 E0.96974
G1 X96.34 Y95.229 E0.98217
G1 X96.442 Y95.535 E0.99431
G1 X96.494 Y95.836 E1.00581
G1 X96.495 Y96.199 E1.01948
G1 X96.437 Y96.526 E1.03198
G1 X96.344 Y96.801 E1.0429
G1 X96.184 Y97.102 E1.05574
G1 X95.986 Y97.363 E1.06807
G1 X95.741 Y97.591 E1.08067
G1 X95.458 Y97.779 E1.09346
G1 X95.13 Y97.919 E1.10688
G1 X94.831 Y97.995 E1.11849
G1 X94.523 Y98.022 E1.13013
G1 X94.175 Y97.995 E1.14327
G1 X93.869 Y97.919 E1.15514
G1 X93.557 Y97.786 E1.16791
G1 X93.281 Y97.609 E1.18025
G1 X93.032 Y97.384 E1.19288
G1 X92.821 Y97.111 E1.20587
G1 X92.67 Y96.834 E1.21775
G1 X92.557 Y96.502 E1.23095
G1 X92.506 Y96.206 E1.24225
G1 X92.504 Y95.869 E1.25494
G1 X92.557 Y95.536 E1.26763
G1 X92.657 Y95.236 E1.27954
G0 F4800 X92.751 Y95.06
G0 X92.153 Y94.736
G0 X92.876 Y93.958
G0 X93.619 Y93.552
G0 X94.037 Y93.435
G0 X94.961 Y93.435
G0 X96.796 Y93.985
G0 X97.592 Y94.25
G0 X97.647 Y94.057
;TYPE:WALL-INNER
G1 F1800 X98.048 Y94.167 E1.29665
G1 X98.405 Y94.226 E1.31154
G1 X98.79 Y94.249 E1.32741
G1 X121.178 Y94.251 E2.24878
G1 X121.636 Y94.221 E2.26767
G1 X122.013 Y94.155 E2.28342
G1 X122.429 Y94.03 E2.3013
G1 X122.81 Y93.868 E2.31834
G1 F1656.1 X123.248 Y93.716 E2.33908
G1 F1460.7 X123.601 Y93.454 E2.36137
G1 F1390 X123.813 Y93.308 E2.37509
G1 F1385.7 X124.117 Y93.141 E2.39363
G1 F1387.9 X124.433 Y93.008 E2.41193
G1 F1385.7 X124.767 Y92.912 E2.43051
G1 X125.119 Y92.849 E2.44963
G1 F1387.9 X125.462 Y92.825 E2.46798
G1 X125.805 Y92.841 E2.48631
G1 F1385.7 X126.16 Y92.896 E2.50551
G1 X126.477 Y92.977 E2.523
G1 F1383.5 X126.818 Y93.11 E2.5426
G1 X127.123 Y93.269 E2.56102
G1 F1387.9 X127.418 Y93.465 E2.57992
G1 X127.667 Y93.674 E2.59727
G1 F1385.7 X127.922 Y93.937 E2.61686
G1 F1387.9 X128.136 Y94.214 E2.63554
G1 F1385.7 X128.314 Y94.51 E2.654
G1 X128.464 Y94.829 E2.67285
G1 F1387.9 X128.573 Y95.144 E2.69064
G1 F1385.7 X128.651 Y95.506 E2.71044
G1 X128.69 Y95.842 E2.72852
G1 F1387.9 X128.69 Y96.195 E2.74736
G1 F1385.7 X128.657 Y96.516 E2.76461
G1 X128.572 Y96.894 E2.78533
G1 F1390 X128.466 Y97.208 E2.80299
G1 F1385.7 X128.317 Y97.525 E2.82171
G1 X128.138 Y97.822 E2.84025
G1 F1387.9 X127.927 Y98.098 E2.85879
G1 F1385.7 X127.68 Y98.354 E2.87781
G1 F1387.9 X127.419 Y98.575 E2.89607
G1 F1390 X127.14 Y98.761 E2.91394
G1 F1385.7 X126.817 Y98.93 E2.93342
G1 X126.486 Y99.06 E2.95244
G1 F1387.9 X126.159 Y99.145 E2.97047
G1 F1385.7 X125.805 Y99.199 E2.98961
G1 X125.462 Y99.215 E3.00797
G1 F1387.9 X125.118 Y99.191 E3.02638
G1 F1385.7 X124.777 Y99.13 E3.04489
G1 X124.433 Y99.031 E3.06403
G1 F1387.9 X124.117 Y98.899 E3.08231
G1 F1385.7 X123.815 Y98.732 E3.10076
G1 F1390 X123.604 Y98.588 E3.11437
G1 F1364.5 X123.213 Y98.299 E3.14077
G1 F1533.6 X122.818 Y98.176 E3.16075
G1 F1800 X122.727 Y98.132 E3.16491
G1 X122.355 Y97.983 E3.18141
G1 X122.031 Y97.891 E3.19527
G1 X121.594 Y97.814 E3.21353
G1 X121.21 Y97.791 E3.22936
G1 X98.8 Y97.79 E4.15164
G1 X98.405 Y97.814 E4.16792
G1 X97.989 Y97.885 E4.18529
G1 X97.577 Y98.008 E4.20298
G1 X97.195 Y98.169 E4.22004
G1 F1659.2 X96.744 Y98.329 E4.24141
G1 F1444.1 X96.257 Y98.691 E4.27254
G1 F1375 X95.883 Y98.899 E4.29559
G1 F1387.9 X95.567 Y99.032 E4.31389
G1 F1385.7 X95.233 Y99.128 E4.33247
G1 X94.881 Y99.191 E4.35159
G1 F1387.9 X94.538 Y99.215 E4.36994
G1 X94.195 Y99.199 E4.38827
G1 F1385.7 X93.84 Y99.145 E4.40747
G1 X93.524 Y99.063 E4.42492
G1 X93.183 Y98.93 E4.44449
G1 X92.875 Y98.77 E4.46304
G1 F1387.9 X92.581 Y98.575 E4.48187
G1 X92.333 Y98.366 E4.49918
G1 F1385.7 X92.073 Y98.098 E4.51914
G1 F1387.9 X91.872 Y97.836 E4.53677
G1 F1385.7 X91.683 Y97.525 E4.55622
G1 X91.533 Y97.205 E4.57512
G1 F1387.9 X91.427 Y96.899 E4.5924
G1 F1385.7 X91.349 Y96.53 E4.61257
G1 X91.31 Y96.197 E4.63049
G1 F1387.9 X91.31 Y95.85 E4.64901
G1 X91.347 Y95.524 E4.66652
G1 F1385.7 X91.427 Y95.141 E4.68744
G1 F1387.9 X91.527 Y94.851 E4.70381
G1 F1385.7 X91.683 Y94.515 E4.72362
G1 X91.862 Y94.218 E4.74216
G1 F1387.9 X92.073 Y93.942 E4.7607
G1 F1385.7 X92.32 Y93.686 E4.77972
G1 F1387.9 X92.581 Y93.465 E4.79797
G1 F1390 X92.862 Y93.278 E4.81596
G1 F1385.7 X93.183 Y93.11 E4.83533
G1 X93.514 Y92.98 E4.85434
G1 F1387.9 X93.841 Y92.895 E4.87237
G1 F1385.7 X94.195 Y92.841 E4.89152
G1 F1387.9 X94.538 Y92.825 E4.90984
G1 X94.882 Y92.849 E4.92825
G1 F1385.7 X95.223 Y92.91 E4.94677
G1 X95.568 Y93.009 E4.96596
G1 F1387.9 X95.882 Y93.14 E4.98412
G1 F1385.7 X96.187 Y93.308 E5.00273
G1 F1455.9 X96.753 Y93.719 E5.03832
G1 F1659.2 X97.182 Y93.864 E5.05854
G1 F1800 X97.273 Y93.908 E5.0627
G1 X97.647 Y94.057 E5.07927
;;retract;;
G1 F2400 E4.51927
G1 X98.405 Y94.226 E4.43081
G1 X98.79 Y94.249 E4.38692
G1 X99.628 Y94.249 E4.29127
G1 F2400 E4.27927
G0 F4800 X97.754 Y93.589
;TYPE:WALL-OUTER
G1 F2400 E5.07927
G1 F1800 X98.106 Y93.691 E5.09307
G1 X98.482 Y93.753 E5.10741
G1 X98.817 Y93.772 E5.12004
G1 X121.192 Y93.772 E5.9623
G1 X121.543 Y93.751 E5.97553
G1 X121.9 Y93.69 E5.98917
G1 X122.236 Y93.591 E6.00235
G1 X122.555 Y93.461 E6.01532
G1 X122.894 Y93.275 E6.02987
G1 X123.52 Y92.839 E6.05859
G1 X123.876 Y92.643 E6.07389
G1 X124.249 Y92.487 E6.08911
G1 X124.641 Y92.373 E6.10447
G1 X125.051 Y92.3 E6.12015
G1 X125.456 Y92.272 E6.13543
G1 X125.859 Y92.29 E6.15062
G1 X126.271 Y92.354 E6.16631
G1 X126.646 Y92.45 E6.18088
G1 X127.046 Y92.606 E6.19705
G1 X127.405 Y92.793 E6.21228
G1 X127.749 Y93.022 E6.22784
G1 X128.059 Y93.282 E6.24307
G1 X128.341 Y93.577 E6.25843
G1 X128.591 Y93.901 E6.27384
G1 X128.802 Y94.248 E6.28912
G1 X128.977 Y94.621 E6.30463
G1 X129.106 Y94.995 E6.31952
G1 X129.201 Y95.434 E6.33643
G1 X129.242 Y95.812 E6.35075
G1 X129.242 Y96.222 E6.36618
G1 X129.205 Y96.606 E6.3807
G1 X129.103 Y97.044 E6.39763
G1 X128.979 Y97.414 E6.41232
G1 X128.805 Y97.786 E6.42778
G1 X128.595 Y98.134 E6.44308
G1 X128.346 Y98.457 E6.45843
G1 X128.059 Y98.758 E6.47408
G1 X127.75 Y99.017 E6.48926
G1 X127.407 Y99.246 E6.50479
G1 X127.046 Y99.434 E6.52011
G1 X126.657 Y99.586 E6.53583
G1 X126.271 Y99.686 E6.55084
G1 X125.859 Y99.75 E6.56653
G1 X125.456 Y99.768 E6.58172
G1 X125.051 Y99.74 E6.597
G1 X124.652 Y99.67 E6.61225
G1 X124.249 Y99.553 E6.62805
G1 X123.877 Y99.398 E6.64322
G1 X123.522 Y99.202 E6.65848
G1 X122.891 Y98.762 E6.68744
G1 X122.545 Y98.574 E6.70226
G1 X122.249 Y98.452 E6.71431
G1 X121.9 Y98.352 E6.72798
G1 X121.544 Y98.29 E6.74158
G1 X121.183 Y98.268 E6.75519
G1 X98.808 Y98.268 E7.59745
G1 X98.469 Y98.288 E7.61023
G1 X98.1 Y98.35 E7.62432
G1 X97.747 Y98.455 E7.63818
G1 X97.445 Y98.579 E7.65047
G1 X97.12 Y98.755 E7.66438
G1 X96.478 Y99.202 E7.69383
G1 X96.123 Y99.398 E7.7091
G1 X95.751 Y99.553 E7.72427
G1 X95.359 Y99.667 E7.73963
G1 X94.949 Y99.74 E7.75531
G1 X94.544 Y99.768 E7.77059
G1 X94.141 Y99.75 E7.78578
G1 X93.729 Y99.686 E7.80147
G1 X93.354 Y99.59 E7.81604
G1 X92.954 Y99.434 E7.8322
G1 X92.593 Y99.246 E7.84753
G1 X92.25 Y99.017 E7.86305
G1 X91.941 Y98.758 E7.87823
G1 X91.654 Y98.457 E7.89388
G1 X91.405 Y98.134 E7.90923
G1 X91.195 Y97.786 E7.92453
G1 X91.02 Y97.413 E7.94004
G1 X90.894 Y97.047 E7.95462
G1 X90.8 Y96.603 E7.9717
G1 X90.758 Y96.228 E7.9859
G1 X90.758 Y95.82 E8.00126
G1 X90.8 Y95.437 E8.01577
G1 X90.894 Y94.993 E8.03285
G1 X91.02 Y94.627 E8.04742
G1 X91.195 Y94.254 E8.06293
G1 X91.405 Y93.907 E8.0782
G1 X91.654 Y93.583 E8.09358
G1 X91.941 Y93.282 E8.10923
G1 X92.25 Y93.023 E8.12441
G1 X92.595 Y92.793 E8.14002
G1 X92.954 Y92.606 E8.15526
G1 X93.343 Y92.454 E8.17098
G1 X93.729 Y92.354 E8.18599
G1 X94.141 Y92.29 E8.20168
G1 X94.544 Y92.272 E8.21687
G1 X94.949 Y92.3 E8.23215
G1 X95.349 Y92.37 E8.24744
G1 X95.751 Y92.487 E8.2632
G1 X96.122 Y92.642 E8.27833
G1 X96.48 Y92.838 E8.29369
G1 X97.114 Y93.282 E8.32283
G1 X97.455 Y93.466 E8.33742
G1 X97.754 Y93.589 E8.34959
G0 F4800 X97.946 Y93.644
;;retract;;
G1 F2400 E7.78959
G1 X98.482 Y93.753 E7.72734
G1 X98.817 Y93.772 E7.68915
G1 X99.936 Y93.772 E7.56159
G1 F2400 E7.54959
G0 F4800 X97.762 Y94.297
G0 X97.076 Y94.044
G0 X96.557 Y93.985
G0 X97.182 Y95.858
G0 X96.916 Y97.193
G0 X96.591 Y97.896
G0 X97.244 Y97.919
G0 X98.793 Y97.581
G0 X121.576 Y97.669
G0 X121.839 Y97.731
G0 X125.496 Y98.701
G1 F2400 E8.34959
G0 F4800 X125.496 Y98.576
;TYPE:WALL-INNER
G1 F1394.4 X125.074 Y98.537 E8.3721
G1 X124.67 Y98.437 E8.39421
G1 X124.286 Y98.265 E8.41657
G1 X123.969 Y98.063 E8.43654
G1 F1364.5 X123.639 Y97.789 E8.45982
G1 F1533.6 X123.457 Y97.425 E8.47948
G1 F1800 X123.397 Y97.333 E8.484
G1 X123.223 Y97.008 E8.49917
G1 X123.097 Y96.636 E8.51534
G1 X123.03 Y96.253 E8.53134
G1 X123.026 Y95.87 E8.5471
G1 X123.03 Y95.786 E8.55056
G1 X123.097 Y95.403 E8.56656
G1 X123.227 Y95.023 E8.58309
G1 X123.41 Y94.685 E8.59891
G1 X123.458 Y94.615 E8.6024
G1 F1656.1 X123.655 Y94.24 E8.62135
G1 F1460.7 X123.968 Y93.978 E8.64205
G1 F1392.2 X124.291 Y93.765 E8.66264
G1 F1390 X124.652 Y93.612 E8.68353
G1 X125.056 Y93.5 E8.70588
G1 F1392.2 X125.491 Y93.464 E8.7291
G1 X125.915 Y93.498 E8.75174
G1 F1387.9 X126.287 Y93.592 E8.77222
G1 X126.657 Y93.74 E8.79349
G1 F1390 X127.039 Y93.982 E8.81759
G1 F1394.4 X127.366 Y94.276 E8.84095
G1 X127.627 Y94.602 E8.86313
G1 X127.829 Y94.973 E8.88558
G1 X127.97 Y95.365 E8.90771
G1 X128.041 Y95.775 E8.92981
G1 X128.049 Y96.233 E8.95415
G1 X127.98 Y96.628 E8.97545
G1 F1396.6 X127.852 Y97.024 E8.99753
G1 F1394.4 X127.634 Y97.426 E9.02182
G1 X127.375 Y97.753 E9.04399
G1 X127.057 Y98.048 E9.06703
G1 X126.708 Y98.27 E9.089
G1 F1392.2 X126.296 Y98.446 E9.11284
G1 F1390 X125.928 Y98.54 E9.13308
G1 F1394.4 X125.496 Y98.576 E9.15612
;;retract;;
G1 F2400 E8.59612
G1 X124.67 Y98.437 E8.5007
G1 X124.286 Y98.265 E8.45282
G1 X123.969 Y98.063 E8.41007
G1 X123.686 Y97.828 E8.36812
G1 F2400 E8.35612
G0 F4800 X125.517 Y98.022
;TYPE:WALL-OUTER
G1 F2400 E9.15612
G1 F1800 X125.17 Y97.995 E9.16922
G1 X124.87 Y97.919 E9.18087
G1 X124.552 Y97.783 E9.19389
G1 X124.284 Y97.611 E9.20587
G1 X124.036 Y97.388 E9.21843
G1 X123.833 Y97.129 E9.23081
G1 X123.66 Y96.811 E9.24444
G1 X123.557 Y96.502 E9.2567
G1 X123.506 Y96.204 E9.26808
G1 X123.504 Y95.869 E9.28069
G1 X123.564 Y95.51 E9.29439
