;FLAVOR:Marlin
;TIME:1337.65
;Filament used:1.99511m
;Layer Height:0.2
;MINX:74.446
;MINY:79.74
;MINZ:0.2
;MAXX:142.351
;MAXY:125.048
;MAXZ:8.6
;OuterWall Time:266.961
;InnerWall Time:203.131
;Skin Time:474.025
;Support Time:0
;SkirtBrim Time:0
;Infill Time:112.455
;Support Infills Time:0
;Combing Time:168.714
;Retraction Time:112.359
;PrimeTower Time:0


;;;;;;;;;;;;;;;;;;;;;;;;;;;;;;;;;;;;;;;;;;;;;;;;;;;;;;;;;;;;;;;;;;;;;;;;;;;;
;Creality Print GCode Generated by CXEngine
;CRSLICE_GIT_HASH:6b8d75d
;Creality Print Version : V4.3.7.6625
;CXEngine Release Time:2023-09-15 20:42:32
;Gcode Generated Time:2023-11-03 22:28:14
;----------Machine Config--------------
;Machine Name:Ender-3 V3 SE
;Machine Height:250
;Machine Width:220
;Machine Depth:220
;Material Type:PLA
;Material Name:CR-PLA_1.75
;Number of Extruders:1
;ExtruderParams[0] Nozzle Diameter:1000
;----------Profile Config---------------
;Wall Thickness:0.8
;Top/Bottom Thickness:0.8
;Out Wall Line Width:0.42
;Inner Wall Line Width:0.45
;Inital Height:200
;Wall Line Count:2
;Infill Line Distance:8
;Infill Pattern:grid
;Infill Sparse Density:10
;Infill Wipe Distance:0
;Print Temperature:205
;Bed Temperature:60
;Support Enable:false
;Support Density:15
;Support Angle:60
;Adhesion Type:autobrim
;machine is belt:false
;machine belt offset:10
;machine belt offset Y:0
;Raft Base Line Spacing:1.6
;Wait Heatup Sync:true
;Enable Ironing:false
;Material Type:PLA
;Max volumetric speed:20
;Material Diameter:1.75
;Material Density:1.24
;Filament Cost:0.3
;Filament Weight:0
;Preview Img Type:png
;Screen Size:Sermoon D3
;----------Shell Config----------------
;Outer Wall Wipe Distance:200
;Outer Inset First:false
;Infill Before Walls:false
;Infill Overlap:0.04
;Fill Gaps Between Walls:everywhere
;Minimum Infill Area:15
;Top Surface Skin Layer:0
;Top Layers:4
;Z Seam Alignment:sharpest_corner
;Seam Corner Preference:z_seam_corner_inner
;Z Seam X:110
;Z Seam Y:220
;Horizontal Expansion:0
;Top/Bottom Pattern:zigzag
;Ironing Pattern:zigzag
;Vase Model:false
;----------Support Config----------------
;Support Type:everywhere
;Support Pattern:zigzag
;Support Infill Layer Thickness:0.15
;Minimum Support Area:1
;Enable Support Roof:true
;Support Roof Thickness:0.8
;Support Roof Pattern:lines
;Connect Support Lines:0
;Connect Support ZigZags:1
;Minimum Support X/Y Distance:0.2
;Support Line Distance:2.67
; ---------PrintSpeed & Travel----------
;Enable Print Cool:true
;Avoid Printed Parts Traveling:true
;Enable Retraction:true
;Retraction Distance:0.8
;Retraction Speed:40
;Retraction Prime Speed:40
;Maximum Retraction Count:100
;Minimum Extrusion Distance Window:0.8
;Z Hop When Retracted:false
;Z Hop Height:0.2
;Retract Before Outer Wall:true

;Outer Wall Speed:60
;Inner Wall Speed:90
;Infill Speed:180
;Top/Bottom Speed:50
;Travel Speed:150
;Initial Layer Speed:30
;Skirt/Brim Speed:25
;Prime Tower Speed:60
;Outer Wall Acceleration:1000
;Inner Wall Acceleration:2000
;Infill Acceleration:2500
;Top/Bottom Acceleration:2500
;Travel Acceleration:2500
;Initial Layer Print Acceleration:500
;Initial Layer Travel Acceleration:500
;Skirt/Brim Acceleration:500
;Combing Mode:noskin
; --------SpecialModel&Mesh Fixes--------
;Union Overlapping Volum:true
;Remove All Holes:false
;Maximum Travel Resolution:0.25
;Maximum Deviation:0.05
;Maximum Model Angle:0.872767
;IS Mold Print:false
;Make Overhang Printable:false
;Enable Coasting:false
;Coasting Volumes:0.064
;Coasting Speed:0.9
;Raft AirGap:0.25
;Layer0 ZOverLap:0.13
;Adaptive Layers:0
;---------------------End of Head--------------------------
M140 S60
M105
M190 S60
M104 S205
M82 ;absolute extrusion mode
M220 S100 ;Reset Feedrate
M221 S100 ;Reset Flowrate

G28 ;Home

G92 E0 ;Reset Extruder
G1 Z2.0 F3000 ;Move Z Axis up
G1 X10.1 Y20 Z0.28 F5000.0 ;Move to start position
M109 S205.000000
G1 X10.1 Y145.0 Z0.28 F1500.0 E15 ;Draw the first line
G1 X10.4 Y145.0 Z0.28 F5000.0 ;Move to side a little
G1 X10.4 Y20 Z0.28 F1500.0 E30 ;Draw the second line
G92 E0  ;Reset Extruder
G1 E-1.0000 F1800 ;Retract a bit
G1 Z2.0 F3000 ;Move Z Axis up
G1 E0.0000 F1800 

G92 E0
G92 E0
G1 F2400 E-0.8
;LAYER_COUNT:43

;LAYER:0
M106 S0
M204 S500
;MESH:0_1
G0 F4800 X76.767 Y84.963 Z0.2
;TYPE:WALL-INNER
G1 F2400 E0
G1 F1800 X76.728 Y84.576 E0.01601
G1 X76.728 Y84.453 E0.02107
G1 X76.757 Y84.115 E0.03503
G1 X76.866 Y83.672 E0.05381
G1 X77.046 Y83.289 E0.07122
G1 X77.302 Y82.913 E0.08994
G1 X77.614 Y82.606 E0.10796
G1 X77.993 Y82.345 E0.12689
G1 X78.377 Y82.17 E0.14426
G1 X78.762 Y82.067 E0.16066
G1 X79.227 Y82.029 E0.17986
G1 X79.623 Y82.062 E0.19622
G1 X80.056 Y82.175 E0.21463
G1 X80.44 Y82.354 E0.23207
G1 X80.799 Y82.605 E0.2501
G1 X81.104 Y82.908 E0.26779
G1 X81.352 Y83.262 E0.28558
G1 X81.539 Y83.654 E0.30345
G1 X81.651 Y84.078 E0.3215
G1 X81.687 Y84.503 E0.33906
G1 X81.653 Y84.937 E0.35697
G1 X81.54 Y85.356 E0.37483
G1 X81.357 Y85.747 E0.3926
G1 X81.108 Y86.103 E0.41048
G1 X80.806 Y86.408 E0.42814
G1 X80.455 Y86.654 E0.44578
G1 X80.059 Y86.842 E0.46382
G1 X79.639 Y86.954 E0.48171
G1 X79.232 Y86.989 E0.49852
G1 X78.779 Y86.957 E0.51721
G1 X78.345 Y86.839 E0.53572
G1 X77.948 Y86.645 E0.55391
G1 X77.618 Y86.414 E0.57048
G1 X77.3 Y86.097 E0.58896
G1 X77.049 Y85.735 E0.60709
G1 X76.882 Y85.38 E0.62324
G1 X76.767 Y84.963 E0.64104
;;retract;;
G1 F2400 E0.08104
G1 X76.728 Y84.576 E0.03681
G1 X76.728 Y84.453 E0.02279
G1 X76.757 Y84.115 E-0.01586
G1 X76.866 Y83.672 E-0.06784
G1 X77.046 Y83.289 E-0.11607
G1 X77.198 Y83.065 E-0.14696
G1 F2400 E-0.15896
G0 F4800 X77.236 Y84.865
;TYPE:WALL-OUTER
G1 F2400 E0.64104
G1 F1800 X77.205 Y84.533 E0.65359
G1 X77.232 Y84.176 E0.66707
G1 X77.317 Y83.842 E0.68004
G1 X77.478 Y83.499 E0.6943
G1 X77.668 Y83.227 E0.70679
G1 X77.902 Y82.99 E0.71933
G1 X78.199 Y82.778 E0.73307
G1 X78.504 Y82.633 E0.74578
G1 X78.852 Y82.537 E0.75937
G1 X79.188 Y82.507 E0.77207
G1 X79.525 Y82.534 E0.78479
G1 X79.909 Y82.635 E0.79974
G1 X80.22 Y82.784 E0.81272
G1 X80.503 Y82.986 E0.82581
G1 X80.75 Y83.236 E0.83904
G1 X80.946 Y83.521 E0.85206
G1 X81.078 Y83.799 E0.86364
G1 X81.179 Y84.178 E0.87841
G1 X81.208 Y84.502 E0.89065
G1 X81.174 Y84.875 E0.90475
G1 X81.08 Y85.211 E0.91788
G1 X80.951 Y85.488 E0.92939
G1 X80.753 Y85.777 E0.94257
G1 X80.51 Y86.026 E0.95567
G1 X80.193 Y86.249 E0.97026
G1 X79.915 Y86.381 E0.98184
G1 X79.556 Y86.48 E0.99586
G1 X79.216 Y86.511 E1.00871
G1 X78.858 Y86.481 E1.02224
G1 X78.53 Y86.394 E1.03501
G1 X78.22 Y86.25 E1.04788
G1 X77.938 Y86.057 E1.06074
G1 X77.672 Y85.796 E1.07477
G1 X77.482 Y85.526 E1.0872
G1 X77.327 Y85.203 E1.10068
G1 X77.236 Y84.865 E1.11386
G0 F4800 X77.218 Y84.666
;;retract;;
G1 F2400 E0.55386
G1 X77.205 Y84.533 E0.5387
G1 X77.232 Y84.176 E0.49789
G1 X77.317 Y83.842 E0.45867
G1 X77.478 Y83.499 E0.41558
G1 X77.668 Y83.227 E0.37784
G1 X77.902 Y82.99 E0.33988
G1 X78.002 Y82.919 E0.32586
G1 F2400 E0.31386
G0 F4800 X76.594 Y84.721
G0 X76.739 Y85.405
G0 X77.194 Y86.194
G0 X77.844 Y86.744
G0 X78.4 Y86.998
G0 X79.17 Y87.129
G0 X79.761 Y87.065
G0 X80.511 Y86.783
G0 X80.888 Y86.521
G0 X81.2 Y86.153
G0 X81.72 Y85.51
G0 X81.72 Y89.059
G0 X89.698 Y88.686
G1 F2400 E1.11386
G0 F4800 X89.683 Y88.834
;TYPE:WALL-INNER
G1 F1800 X88.344 Y88.782 E1.16901
G1 X79.231 Y88.779 E1.54405
G1 X78.674 Y88.743 E1.56702
G1 X78.138 Y88.641 E1.58948
G1 X77.638 Y88.479 E1.61111
G1 X77.146 Y88.246 E1.63351
G1 X76.698 Y87.962 E1.65534
G1 X76.28 Y87.617 E1.67764
G1 X75.917 Y87.23 E1.69948
G1 X75.602 Y86.797 E1.72152
G1 X75.344 Y86.328 E1.74355
G1 X75.143 Y85.819 E1.76607
G1 X75.014 Y85.313 E1.78756
G1 X74.946 Y84.78 E1.80967
G1 X74.946 Y84.246 E1.83165
G1 X75.014 Y83.704 E1.85413
G1 X75.143 Y83.199 E1.87558
G1 X75.344 Y82.69 E1.8981
G1 X75.602 Y82.221 E1.92013
G1 X75.917 Y81.788 E1.94217
G1 X76.28 Y81.402 E1.96397
G1 X76.698 Y81.056 E1.98631
G1 X77.146 Y80.771 E2.00816
G1 X77.637 Y80.539 E2.03051
G1 X78.14 Y80.377 E2.05225
G1 X78.676 Y80.274 E2.07472
G1 X79.201 Y80.241 E2.09637
G1 X101.184 Y80.24 E3.00107
G1 X101.682 Y80.268 E3.02159
G1 X102.166 Y80.351 E3.0418
G1 X102.628 Y80.484 E3.06159
G1 X103.088 Y80.677 E3.08212
G1 X111.901 Y84.957 E3.48532
G1 X112.912 Y85.741 E3.53798
G1 X114.019 Y86.529 E3.5939
G1 X115.142 Y87.256 E3.64895
G1 X116.278 Y87.922 E3.70315
G1 X117.447 Y88.537 E3.75751
G1 X118.576 Y89.066 E3.80882
G1 X119.778 Y89.561 E3.86232
G1 X120.926 Y89.975 E3.91254
G1 X122.138 Y90.348 E3.96473
G1 X123.387 Y90.671 E4.01782
G1 X124.594 Y90.923 E4.06857
G1 X125.846 Y91.124 E4.12075
G1 X127.125 Y91.27 E4.17373
G1 X128.42 Y91.36 E4.22716
G1 X129.738 Y91.393 E4.28141
G1 X131.081 Y91.369 E4.33669
G1 X132.027 Y91.315 E4.37569
G1 X138.563 Y94.086 E4.66785
G1 X137.398 Y96.835 E4.79073
G1 X136.546 Y97.226 E4.82931
G1 X135.434 Y97.674 E4.87864
G1 X134.384 Y98.043 E4.92445
G1 X133.307 Y98.364 E4.9707
G1 X132.249 Y98.624 E5.01553
G1 X131.14 Y98.84 E5.06203
G1 X130.049 Y99.001 E5.10742
G1 X128.944 Y99.108 E5.15311
G1 X127.824 Y99.164 E5.19926
G1 X126.688 Y99.167 E5.24601
G1 X125.524 Y99.119 E5.29395
G1 X124.331 Y99.015 E5.34324
G1 X123.101 Y98.856 E5.39428
G1 X121.828 Y98.641 E5.44741
G1 X120.505 Y98.364 E5.50304
G1 X119.122 Y98.021 E5.56168
G1 X117.659 Y97.609 E5.62423
G1 X116.099 Y97.116 E5.69156
G1 X114.484 Y96.559 E5.76187
G1 X112.328 Y95.761 E5.85648
G1 X109.595 Y94.685 E5.97736
G1 X106.365 Y93.383 E6.12068
G1 X103.836 Y92.389 E6.23251
G1 X101.826 Y91.638 E6.32082
G1 X100.028 Y91.016 E6.39912
G1 X98.374 Y90.492 E6.47052
G1 X96.804 Y90.048 E6.53767
G1 X95.382 Y89.692 E6.598
G1 X93.98 Y89.394 E6.65698
G1 X92.466 Y89.131 E6.72023
G1 X91.064 Y88.95 E6.7784
G1 X89.683 Y88.834 E6.83544
;;retract;;
G1 F2400 E6.27544
G1 X87.683 Y88.824 E6.04744
G1 F2400 E6.03544
G0 F4800 X89.643 Y89.311
;TYPE:WALL-OUTER
G1 F2400 E6.83544
G1 F1800 X88.326 Y89.26 E6.88505
G1 X79.216 Y89.257 E7.22798
G1 X78.614 Y89.218 E7.25068
G1 X78.019 Y89.106 E7.27347
G1 X77.461 Y88.925 E7.29556
G1 X76.915 Y88.666 E7.31831
G1 X76.416 Y88.35 E7.34054
G1 X75.952 Y87.966 E7.36321
G1 X75.547 Y87.535 E7.38547
G1 X75.197 Y87.054 E7.40787
G1 X74.91 Y86.532 E7.43029
G1 X74.686 Y85.967 E7.45317
G1 X74.543 Y85.403 E7.47507
G1 X74.467 Y84.811 E7.49754
G1 X74.467 Y84.216 E7.51993
G1 X74.543 Y83.615 E7.54274
G1 X74.686 Y83.051 E7.56464
G1 X74.911 Y82.486 E7.58753
G1 X75.197 Y81.964 E7.60994
G1 X75.547 Y81.483 E7.63233
G1 X75.952 Y81.052 E7.65459
G1 X76.416 Y80.668 E7.67727
G1 X76.915 Y80.351 E7.69952
G1 X77.461 Y80.093 E7.72225
G1 X78.022 Y79.912 E7.74444
G1 X78.616 Y79.799 E7.7672
G1 X79.214 Y79.761 E7.78976
G1 X101.197 Y79.761 E8.61726
G1 X101.736 Y79.792 E8.63758
G1 X102.273 Y79.884 E8.65809
G1 X102.787 Y80.032 E8.67822
G1 X103.285 Y80.241 E8.69855
G1 X112.154 Y84.548 E9.06969
G1 X113.206 Y85.363 E9.11979
G1 X114.296 Y86.139 E9.17015
G1 X115.402 Y86.854 E9.21973
G1 X116.52 Y87.509 E9.2685
G1 X117.641 Y88.099 E9.31619
G1 X118.779 Y88.632 E9.36349
G1 X119.931 Y89.107 E9.4104
G1 X121.089 Y89.524 E9.45673
G1 X122.279 Y89.891 E9.5036
G1 X123.474 Y90.2 E9.55007
G1 X124.692 Y90.454 E9.5969
G1 X125.922 Y90.651 E9.64379
G1 X127.179 Y90.795 E9.69142
G1 X128.453 Y90.883 E9.73949
G1 X129.75 Y90.915 E9.78833
G1 X131.072 Y90.891 E9.8381
G1 X132.111 Y90.831 E9.87728
G1 X139.19 Y93.833 E10.16672
G1 X137.766 Y97.192 E10.30405
G1 X136.736 Y97.666 E10.34673
G1 X135.603 Y98.122 E10.39271
G1 X134.532 Y98.498 E10.43544
G1 X133.432 Y98.826 E10.47864
G1 X132.352 Y99.091 E10.5205
G1 X131.221 Y99.312 E10.56388
G1 X130.107 Y99.476 E10.60627
G1 X128.979 Y99.586 E10.64893
G1 X127.837 Y99.642 E10.69197
G1 X126.679 Y99.646 E10.73556
G1 X125.493 Y99.596 E10.78025
G1 X124.28 Y99.491 E10.82608
G1 X123.03 Y99.329 E10.87352
G1 X121.739 Y99.111 E10.92281
G1 X120.399 Y98.831 E10.97434
G1 X118.999 Y98.484 E11.02863
G1 X117.522 Y98.068 E11.0864
G1 X115.949 Y97.571 E11.14849
G1 X114.327 Y97.011 E11.21309
G1 X112.116 Y96.192 E11.30184
G1 X109.419 Y95.13 E11.41095
G1 X106.187 Y93.827 E11.54213
G1 X103.661 Y92.834 E11.6443
G1 X101.659 Y92.087 E11.72473
G1 X99.872 Y91.468 E11.79592
G1 X98.23 Y90.949 E11.86074
G1 X96.674 Y90.509 E11.92161
G1 X95.266 Y90.156 E11.97625
G1 X93.881 Y89.862 E12.02955
G1 X92.415 Y89.607 E12.08556
G1 X91.003 Y89.425 E12.13916
G1 X89.643 Y89.311 E12.19053
G0 F4800 X89.443 Y89.304
;;retract;;
G1 F2400 E11.63053
G1 X87.444 Y89.295 E11.40253
G1 F2400 E11.39053
G0 F4800 X89.467 Y88.677
G0 X91.096 Y88.705
G0 X98.636 Y85.36
G0 X98.586 Y84.471
G0 X98.719 Y83.692
G0 X98.97 Y83.147
G0 X99.524 Y82.494
G0 X100.309 Y82.042
G0 X101.164 Y81.889
G0 X101.751 Y81.95
G0 X102.36 Y82.176
G0 X102.902 Y82.505
G1 F2400 E12.19053
G0 F4800 X102.798 Y82.604
;TYPE:WALL-INNER
G1 F1800 X103.104 Y82.908 E12.20828
G1 X103.352 Y83.262 E12.22607
G1 X103.538 Y83.654 E12.24393
G1 X103.651 Y84.076 E12.2619
G1 X103.689 Y84.496 E12.27926
G1 X103.653 Y84.939 E12.29755
G1 X103.538 Y85.361 E12.31555
G1 X103.341 Y85.769 E12.3342
G1 X103.109 Y86.103 E12.35093
G1 X102.805 Y86.408 E12.36866
G1 X102.455 Y86.654 E12.38626
G1 X102.059 Y86.842 E12.4043
G1 X101.641 Y86.954 E12.42211
G1 X101.213 Y86.993 E12.4398
G1 X100.769 Y86.954 E12.45814
G1 X100.352 Y86.842 E12.47591
G1 X99.991 Y86.671 E12.49235
G1 X99.616 Y86.416 E12.51102
G1 X99.313 Y86.113 E12.52865
G1 X99.057 Y85.754 E12.5468
G1 X98.871 Y85.359 E12.56476
G1 X98.76 Y84.942 E12.58252
G1 X98.728 Y84.576 E12.59764
G1 X98.728 Y84.453 E12.60271
G1 X98.759 Y84.086 E12.61786
G1 X98.87 Y83.662 E12.6359
G1 X99.052 Y83.275 E12.6535
G1 X99.302 Y82.914 E12.67157
G1 X99.605 Y82.61 E12.68924
G1 X99.966 Y82.357 E12.70738
G1 X100.352 Y82.175 E12.72494
G1 X100.772 Y82.065 E12.74281
G1 X101.183 Y82.029 E12.75979
G1 X101.624 Y82.064 E12.778
G1 X102.05 Y82.173 E12.79609
G1 X102.443 Y82.357 E12.81395
G1 X102.798 Y82.604 E12.83175
;;retract;;
G1 F2400 E12.27175
G1 X103.352 Y83.262 E12.17371
G1 X103.538 Y83.654 E12.12435
G1 X103.651 Y84.076 E12.07464
G1 X103.675 Y84.346 E12.04375
G1 F2400 E12.03175
G0 F4800 X102.503 Y82.986
;TYPE:WALL-OUTER
G1 F2400 E12.83175
G1 F1800 X102.75 Y83.236 E12.84498
G1 X102.946 Y83.521 E12.858
G1 X103.078 Y83.799 E12.86958
G1 X103.179 Y84.178 E12.88435
G1 X103.207 Y84.481 E12.8958
G1 X103.174 Y84.875 E12.91068
G1 X103.08 Y85.211 E12.92382
G1 X102.951 Y85.488 E12.93532
G1 X102.753 Y85.777 E12.94851
G1 X102.494 Y86.04 E12.9624
G1 X102.193 Y86.249 E12.9762
G1 X101.915 Y86.381 E12.98778
G1 X101.537 Y86.482 E13.00251
G1 X101.23 Y86.51 E13.01411
G1 X100.87 Y86.483 E13.0277
G1 X100.531 Y86.394 E13.0409
G1 X100.212 Y86.246 E13.05413
G1 X99.938 Y86.057 E13.06666
G1 X99.671 Y85.795 E13.08074
G1 X99.482 Y85.526 E13.09312
G1 X99.329 Y85.208 E13.1064
G1 X99.239 Y84.878 E13.11928
G1 X99.205 Y84.533 E13.13233
G1 X99.231 Y84.186 E13.14543
G1 X99.331 Y83.806 E13.16022
G1 X99.478 Y83.499 E13.17303
G1 X99.657 Y83.241 E13.18485
G1 X99.902 Y82.99 E13.19806
G1 X100.19 Y82.784 E13.21138
G1 X100.497 Y82.636 E13.22421
G1 X100.855 Y82.536 E13.23821
G1 X101.197 Y82.507 E13.25113
G1 X101.544 Y82.536 E13.26423
G1 X101.886 Y82.625 E13.27754
G1 X102.188 Y82.765 E13.29007
G1 X102.503 Y82.986 E13.30455
G0 F4800 X102.643 Y83.128
;;retract;;
G1 F2400 E12.74455
G1 X102.946 Y83.521 E12.68801
G1 X103.078 Y83.799 E12.65301
G1 X103.179 Y84.178 E12.60832
G1 X103.207 Y84.481 E12.57366
G1 X103.174 Y84.875 E12.52863
G1 X103.146 Y84.977 E12.51655
G1 F2400 E12.50455
G0 F4800 X103.086 Y82.682
G0 X102.889 Y82.389
G0 X103.501 Y81.132
G1 F2400 E13.30455
G0 F4800 X103.194 Y81.361
;TYPE:SKIN
G1 F1800 X103.601 Y81.436 E13.32045
G1 X111.655 Y85.348 E13.66437
G1 X112.661 Y86.126 E13.71322
G1 X113.751 Y86.901 E13.76459
G1 X114.901 Y87.648 E13.81727
G1 X116.045 Y88.318 E13.86819
G1 X117.242 Y88.948 E13.92015
G1 X118.422 Y89.499 E13.97017
G1 X119.6 Y89.984 E14.0191
G1 X120.771 Y90.406 E14.06691
G1 X122.011 Y90.79 E14.11677
G1 X123.276 Y91.116 E14.16695
G1 X124.544 Y91.38 E14.2167
G1 X125.802 Y91.58 E14.26563
G1 X127.115 Y91.73 E14.31639
G1 X128.431 Y91.82 E14.36706
G1 X129.766 Y91.852 E14.41835
G1 X131.086 Y91.828 E14.46906
G1 X131.948 Y91.778 E14.50223
G1 X137.962 Y94.331 E14.75318
G1 X137.046 Y96.492 E14.84334
G1 X136.364 Y96.805 E14.87216
G1 X135.274 Y97.244 E14.9173
G1 X134.241 Y97.607 E14.95936
G1 X133.26 Y97.9 E14.99868
G1 X132.15 Y98.175 E15.04261
