;FLAVOR:Marlin
;TIME:2649.92
;Filament used:3.27539m
;Layer Height:0.2
;MINX:88.026
;MINY:70.857
;MINZ:0.2
;MAXX:131.974
;MAXY:148.28
;MAXZ:28
;OuterWall Time:570.374
;InnerWall Time:400.95
;Skin Time:711.201
;Support Time:175.164
;SkirtBrim Time:13.3049
;Infill Time:193.508
;Support Infills Time:0
;Combing Time:280.645
;Retraction Time:299.912
;PrimeTower Time:4.86338
;;;;;;;;;;;;;;;;;;;;;;;;;;;;;;;;;;;;;;;;;;;;;;;;;;;;;;;;;;;;;;
;Creality Print GCode Generated by CXEngine
;CRSLICE_GIT_HASH:6b8d75d
;Creality Print Version : V4.3.7.6625
;CXEngine Release Time:2023-09-15 20:42:32
;Gcode Generated Time:2023-11-04 00:28:18
;----------Machine Config--------------
;Machine Name:Ender-3 V3 SE
;Machine Height:250
;Machine Width:220
;Machine Depth:220
;Material Type:PLA
;Material Name:CR-PLA_1.75
;Number of Extruders:1
;ExtruderParams[0] Nozzle Diameter:1000
;----------Profile Config---------------
;Wall Thickness:0.8
;Top/Bottom Thickness:0.8
;Out Wall Line Width:0.42
;Inner Wall Line Width:0.45
;Inital Height:200
;Wall Line Count:2
;Infill Line Distance:8
;Infill Pattern:grid
;Infill Sparse Density:10
;Infill Wipe Distance:0
;Print Temperature:205
;Bed Temperature:60
;Support Enable:false
;Support Density:15
;Support Angle:60
;Adhesion Type:autobrim
;machine is belt:false
;machine belt offset:10
;machine belt offset Y:0
;Raft Base Line Spacing:1.6
;Wait Heatup Sync:true
;Enable Ironing:false
;Material Type:PLA
;Max volumetric speed:20
;Material Diameter:1.75
;Material Density:1.24
;Filament Cost:0.3
;Filament Weight:0
;Preview Img Type:png
;Screen Size:Sermoon D3
;----------Shell Config----------------
;Outer Wall Wipe Distance:200
;Outer Inset First:false
;Infill Before Walls:false
;Infill Overlap:0.04
;Fill Gaps Between Walls:everywhere
;Minimum Infill Area:15
;Top Surface Skin Layer:0
;Top Layers:4
;Z Seam Alignment:sharpest_corner
;Seam Corner Preference:z_seam_corner_inner
;Z Seam X:110
;Z Seam Y:220
;Horizontal Expansion:0
;Top/Bottom Pattern:zigzag
;Ironing Pattern:zigzag
;Vase Model:false
;----------Support Config----------------
;Support Type:everywhere
;Support Pattern:zigzag
;Support Infill Layer Thickness:0.15
;Minimum Support Area:1
;Enable Support Roof:true
;Support Roof Thickness:0.8
;Support Roof Pattern:lines
;Connect Support Lines:0
;Connect Support ZigZags:1
;Minimum Support X/Y Distance:0.2
;Support Line Distance:2.67
; ---------PrintSpeed & Travel----------
;Enable Print Cool:true
;Avoid Printed Parts Traveling:true
;Enable Retraction:true
;Retraction Distance:0.8
;Retraction Speed:40
;Retraction Prime Speed:40
;Maximum Retraction Count:100
;Minimum Extrusion Distance Window:0.8
;Z Hop When Retracted:false
;Z Hop Height:0.2
;Retract Before Outer Wall:true

;Outer Wall Speed:60
;Inner Wall Speed:90
;Infill Speed:180
;Top/Bottom Speed:50
;Travel Speed:150
;Initial Layer Speed:30
;Skirt/Brim Speed:25
;Prime Tower Speed:60
;Outer Wall Acceleration:1000
;Inner Wall Acceleration:2000
;Infill Acceleration:2500
;Top/Bottom Acceleration:2500
;Travel Acceleration:2500
;Initial Layer Print Acceleration:500
;Initial Layer Travel Acceleration:500
;Skirt/Brim Acceleration:500
;Combing Mode:noskin
; --------SpecialModel&Mesh Fixes--------
;Union Overlapping Volum:true
;Remove All Holes:false
;Maximum Travel Resolution:0.25
;Maximum Deviation:0.05
;Maximum Model Angle:0.872767
;IS Mold Print:false
;Make Overhang Printable:false
;Enable Coasting:false
;Coasting Volumes:0.064
;Coasting Speed:0.9
;Raft AirGap:0.25
;Layer0 ZOverLap:0.13
;Adaptive Layers:0
;---------------------End of Head--------------------------
M140 S60
M105
M190 S60
M104 S205
M82 ;absolute extrusion mode
M220 S100 ;Reset Feedrate
M221 S100 ;Reset Flowrate

G28 ;Home

G92 E0 ;Reset Extruder
G1 Z2.0 F3000 ;Move Z Axis up
G1 X10.1 Y20 Z0.28 F5000.0 ;Move to start position
M109 S205.000000
G1 X10.1 Y145.0 Z0.28 F1500.0 E15 ;Draw the first line
G1 X10.4 Y145.0 Z0.28 F5000.0 ;Move to side a little
G1 X10.4 Y20 Z0.28 F1500.0 E30 ;Draw the second line
G92 E0  ;Reset Extruder
G1 E-1.0000 F1800 ;Retract a bit
G1 Z2.0 F3000 ;Move Z Axis up
G1 E0.0000 F1800 

G92 E0
G92 E0
G1 F2400 E-0.8
;LAYER_COUNT:140

;LAYER:0
M106 S0
M204 S500
G0 F4800 X93.586 Y77.296 Z0.2
;TYPE:SKIRT
G1 F2400 E0
G1 F1500 X93.328 Y77.611 E0.01564
G1 X93.136 Y77.97 E0.03128
G1 X93.018 Y78.36 E0.04693
G1 X92.978 Y78.765 E0.06256
G1 X92.978 Y79.15 E0.07735
G1 X93.019 Y79.561 E0.09321
G1 X93.138 Y79.951 E0.10888
G1 X93.331 Y80.309 E0.1245
G1 X93.59 Y80.624 E0.14016
G1 X93.801 Y80.796 E0.15062
G1 X93.801 Y80.168 E0.17474
G1 X93.608 Y79.868 E0.18844
G1 X93.485 Y79.53 E0.20226
G1 X93.44 Y79.15 E0.21696
G1 X93.44 Y78.765 E0.23175
G1 X93.48 Y78.408 E0.24554
G1 X93.598 Y78.069 E0.25933
G1 X93.787 Y77.764 E0.27311
G1 X94.039 Y77.508 E0.28691
G1 X94.342 Y77.315 E0.30071
G1 X94.68 Y77.193 E0.31451
G1 X95.056 Y77.148 E0.32906
G1 X108.514 Y77.142 E0.84599
G1 X108.871 Y77.182 E0.85979
G1 X109.211 Y77.299 E0.8736
G1 X109.516 Y77.489 E0.88741
G1 X109.771 Y77.741 E0.90118
G1 X109.965 Y78.043 E0.91496
G1 X110.087 Y78.381 E0.92877
G1 X110.132 Y78.758 E0.94335
G1 X110.138 Y92.216 E1.46029
G1 X110.098 Y92.573 E1.47408
G1 X109.981 Y92.913 E1.4879
G1 X109.791 Y93.218 E1.5017
G1 X109.539 Y93.473 E1.51547
G1 X109.237 Y93.667 E1.52926
G1 X108.899 Y93.789 E1.54306
G1 X108.522 Y93.834 E1.55764
G1 X102.565 Y93.837 E1.78646
G1 X102.208 Y93.797 E1.80026
G1 X101.764 Y93.644 E1.81829
G1 X101.764 Y94.138 E1.83727
G1 X102.16 Y94.259 E1.85317
G1 X102.565 Y94.299 E1.86881
G1 X108.522 Y94.296 E2.09762
G1 X108.929 Y94.256 E2.11333
G1 X109.319 Y94.137 E2.12899
G1 X109.678 Y93.944 E2.14465
G1 X109.992 Y93.686 E2.16026
G1 X110.251 Y93.371 E2.17592
G1 X110.442 Y93.011 E2.19157
G1 X110.56 Y92.621 E2.20723
G1 X110.6 Y92.216 E2.22286
G1 X110.594 Y78.758 E2.73979
G1 X110.554 Y78.351 E2.7555
G1 X110.435 Y77.961 E2.77116
G1 X110.242 Y77.602 E2.78682
G1 X109.984 Y77.288 E2.80243
G1 X109.669 Y77.029 E2.81809
G1 X109.309 Y76.838 E2.83375
G1 X108.919 Y76.72 E2.8494
G1 X108.514 Y76.68 E2.86503
G1 X95.056 Y76.686 E3.38197
G1 X94.65 Y76.726 E3.39764
G1 X94.26 Y76.845 E3.4133
G1 X93.901 Y77.037 E3.42894
G1 X93.586 Y77.296 E3.4446
G0 F4800 X94.244 Y77.944
G1 F1500 X94.059 Y78.184 E3.45624
G1 X93.942 Y78.464 E3.4679
G1 X93.902 Y78.765 E3.47956
G1 X93.902 Y79.15 E3.49435
G1 X93.94 Y79.442 E3.50566
G1 X94.054 Y79.723 E3.51731
G1 X94.238 Y79.964 E3.52895
G1 X94.56 Y80.213 E3.54459
G1 X101.758 Y80.192 E3.82107
G1 X101.764 Y93.048 E4.31488
G1 X101.984 Y93.219 E4.32558
G1 X102.264 Y93.335 E4.33723
G1 X102.565 Y93.375 E4.34889
G1 X108.522 Y93.372 E4.5777
G1 X108.812 Y93.335 E4.58893
G1 X109.093 Y93.221 E4.60058
G1 X109.334 Y93.037 E4.61223
G1 X109.52 Y92.797 E4.62389
G1 X109.636 Y92.517 E4.63553
G1 X109.676 Y92.216 E4.6472
G1 X109.67 Y78.758 E5.16413
G1 X109.633 Y78.468 E5.17536
G1 X109.519 Y78.187 E5.18701
G1 X109.335 Y77.946 E5.19865
G1 X109.095 Y77.76 E5.21032
G1 X108.815 Y77.644 E5.22196
G1 X108.514 Y77.604 E5.23362
G1 X95.056 Y77.61 E5.75056
G1 X94.767 Y77.647 E5.76175
G1 X94.486 Y77.761 E5.7734
G1 X94.244 Y77.944 E5.78505
G0 F4800 X94.578 Y78.221
G1 F1500 X94.364 Y78.606 E5.80197
G1 X94.364 Y79.256 E5.82694
G1 X94.513 Y79.63 E5.8424
G1 X94.898 Y79.843 E5.8593
G1 X101.234 Y79.831 E6.10267
G1 X101.528 Y80.046 E6.11666
G1 X101.865 Y80.085 E6.12969
G1 X101.871 Y92.328 E6.59996
G1 X102.019 Y92.699 E6.6153
G1 X102.405 Y92.913 E6.63226
G1 X108.629 Y92.91 E6.87133
G1 X108.884 Y92.808 E6.88187
G1 X109.06 Y92.653 E6.89088
G1 X109.214 Y92.217 E6.90864
G1 X109.208 Y78.651 E7.42973
G1 X109.106 Y78.396 E7.44028
G1 X108.951 Y78.22 E7.44928
G1 X108.515 Y78.066 E7.46705
G1 X94.949 Y78.072 E7.98813
G1 X94.578 Y78.221 E8.00349
G0 F4800 X95.057 Y78.765
G1 F1500 X95.057 Y79.15 E8.01827
G1 X101.758 Y79.137 E8.27567
G1 X101.758 Y79.392 E8.28546
G1 X102.558 Y79.39 E8.31619
G1 X102.564 Y92.22 E8.809
G1 X108.521 Y92.217 E9.03782
G1 X108.515 Y78.759 E9.55475
G1 X95.057 Y78.765 E10.07169
G0 F4800 X94.826 Y78.668
G1 F1500 X94.826 Y79.217 E10.09277
G1 X94.961 Y79.381 E10.10093
G1 X101.527 Y79.368 E10.35314
G1 X101.662 Y79.623 E10.36422
G1 X102.327 Y79.622 E10.38977
G1 X102.333 Y92.287 E10.87624
G1 X102.467 Y92.451 E10.88438
G1 X108.588 Y92.448 E11.11949
G1 X108.752 Y92.314 E11.12762
G1 X108.746 Y78.692 E11.65086
G1 X108.612 Y78.528 E11.65899
G1 X94.99 Y78.534 E12.18223
G1 X94.826 Y78.668 E12.19036
;;retract;;
G1 F2400 E11.63036
G1 X94.961 Y79.381 E11.54771
G1 X96.236 Y79.379 E11.40236
G1 F2400 E11.39036
G0 F4800 X95.249 Y78.957
;TYPE:SUPPORT
G1 F2400 E12.19036
G1 F1540 X101.678 Y78.95 E12.42127
G1 F1788.4 X101.862 Y79.147 E12.42961
G1 F2105.3 X101.875 Y79.274 E12.43296
G1 F2110.7 X102.478 Y79.273 E12.44876
G1 F1943 X102.709 Y79.47 E12.45741
G1 F1800 X102.715 Y92.069 E12.84456
G1 X108.37 Y92.066 E13.01833
G1 X108.364 Y78.91 E13.4226
G1 X103.266 Y78.912 E13.57925
G1 F1943 X102.477 Y78.879 E13.60173
G1 F2110.7 X102.047 Y78.879 E13.613
G1 F1788.4 X101.678 Y78.95 E13.62462
G0 F4800 X103.125 Y79.363
G1 F1800 X103.17 Y79.451 E13.62766
G1 X103.177 Y91.607 E14.0012
G1 X107.908 Y91.604 E14.14658
G1 X107.902 Y79.372 E14.52245
G1 X103.268 Y79.374 E14.66485
G1 X103.125 Y79.363 E14.66926
G0 F4800 X103.633 Y79.836
G1 F1800 X103.639 Y91.145 E15.01677
G1 X107.446 Y91.142 E15.13375
G1 X107.44 Y79.834 E15.48123
G1 X103.633 Y79.836 E15.59822
G0 F4800 X104.095 Y80.298
G1 F1800 X104.101 Y90.683 E15.91734
G1 X106.984 Y90.68 E16.00593
G1 X106.978 Y80.296 E16.32502
G1 X104.095 Y80.298 E16.41361
G0 F4800 X104.557 Y80.76
G1 F1800 X104.563 Y90.221 E16.70433
G1 X106.522 Y90.218 E16.76453
G1 X106.516 Y80.758 E17.05522
G1 X104.557 Y80.76 E17.11542
G0 F4800 X105.019 Y81.222
G1 F1800 X105.025 Y89.758 E17.37772
G1 X106.06 Y89.757 E17.40953
G1 X106.054 Y81.22 E17.67186
G1 X105.019 Y81.222 E17.70366
G0 F4800 X105.537 Y81.739
G1 F1451.3 X105.542 Y89.24 E17.98954
;;retract;;
G1 F2400 E17.42954
G1 F2400 E17.18954
;MESH:0_0
G0 F4800 X109.184 Y89.238
G0 X109.174 Y92.87
G0 X103.425 Y101.889
G0 X102.661 Y102.674
G0 X102.888 Y103.43
G1 F2400 E17.98954
G0 F4800 X102.984 Y103.32
;TYPE:WALL-INNER
G1 F1800 X103.646 Y103.727 E18.02152
G1 X104.334 Y104.011 E18.05215
G1 X105.054 Y104.183 E18.08262
G1 X105.737 Y104.237 E18.11081
G1 X112.102 Y104.237 E18.37276
G1 X112.639 Y104.277 E18.39492
G1 X113.145 Y104.398 E18.41633
G1 X113.615 Y104.592 E18.43726
G1 X114.048 Y104.858 E18.45817
G1 X114.465 Y105.212 E18.48069
G1 X122.155 Y112.892 E18.92796
G1 X122.679 Y113.337 E18.95626
G1 X123.28 Y113.701 E18.98517
G1 X123.988 Y113.998 E19.01677
G1 X124.745 Y114.176 E19.04877
G1 X125.452 Y114.23 E19.07795
G1 X128.163 Y114.23 E19.18952
G1 X128.711 Y114.272 E19.21214
G1 X129.205 Y114.391 E19.23306
G1 X129.676 Y114.585 E19.25402
G1 X130.109 Y114.851 E19.27493
G1 X130.502 Y115.185 E19.29616
G1 X130.842 Y115.584 E19.31773
G1 X131.106 Y116.013 E19.33846
G1 X131.302 Y116.484 E19.35946
G1 X131.422 Y116.982 E19.38054
G1 X131.466 Y117.524 E19.40292
G1 X131.471 Y129.466 E19.89439
G1 X131.428 Y130.014 E19.91701
G1 X131.313 Y130.5 E19.93756
G1 X131.116 Y130.976 E19.95876
G1 X130.849 Y131.413 E19.97984
G1 X130.515 Y131.805 E20.00103
G1 X130.119 Y132.143 E20.02246
G1 X129.683 Y132.411 E20.04352
G1 X129.212 Y132.606 E20.0645
G1 X128.718 Y132.726 E20.08542
G1 X128.17 Y132.769 E20.10805
G1 X125.887 Y132.771 E20.202
G1 X125.172 Y132.83 E20.23153
G1 X124.42 Y133.019 E20.26344
G1 X123.715 Y133.325 E20.29507
G1 X123.06 Y133.747 E20.32713
G1 X122.488 Y134.267 E20.35895
G1 X122.033 Y134.845 E20.38922
G1 X114.406 Y146.291 E20.95528
G1 X114.054 Y146.736 E20.97863
G1 X113.654 Y147.098 E21.00083
G1 X113.211 Y147.385 E21.02255
G1 X112.714 Y147.601 E21.04485
G1 X112.206 Y147.729 E21.06641
G1 X111.635 Y147.776 E21.08999
G1 X99.981 Y147.78 E21.56961
G1 X99.411 Y147.734 E21.59314
G1 X98.903 Y147.607 E21.61469
G1 X98.406 Y147.391 E21.63699
G1 X97.962 Y147.105 E21.65873
G1 X97.562 Y146.742 E21.68096
G1 X97.209 Y146.298 E21.7043
G1 X89.096 Y134.139 E22.30587
G1 X88.848 Y133.703 E22.32651
G1 X88.671 Y133.242 E22.34683
G1 X88.57 Y132.788 E22.36597
G1 X88.533 Y132.281 E22.3869
G1 X88.526 Y116.253 E23.04652
G1 X88.562 Y115.745 E23.06748
G1 X88.663 Y115.289 E23.0867
G1 X88.835 Y114.84 E23.10649
G1 X89.065 Y114.427 E23.12594
G1 X89.374 Y114.025 E23.14681
G1 X93.339 Y109.588 E23.3917
G1 X93.758 Y109.036 E23.42022
G1 X94.08 Y108.458 E23.44745
G1 X94.325 Y107.82 E23.47558
G1 X94.476 Y107.137 E23.50436
G1 X94.523 Y106.458 E23.53238
G1 X94.511 Y80.923 E24.58326
G1 X101.049 Y80.904 E24.85233
G1 X101.06 Y99.577 E25.62081
G1 X101.118 Y100.268 E25.64935
G1 X101.289 Y100.974 E25.67924
G1 X101.578 Y101.67 E25.71026
G1 X101.966 Y102.299 E25.74067
G1 X102.453 Y102.866 E25.77143
G1 X102.984 Y103.32 E25.80018
;;retract;;
G1 F2400 E25.24018
G1 X104.334 Y104.011 E25.06736
G1 X104.804 Y104.123 E25.01218
G1 F2400 E25.00018
G0 F4800 X103.291 Y102.952
;TYPE:WALL-OUTER
G1 F2400 E25.80018
G1 F1800 X103.856 Y103.297 E25.8251
G1 X104.48 Y103.553 E25.85049
G1 X105.134 Y103.71 E25.87581
G1 X105.775 Y103.76 E25.90001
G1 X112.12 Y103.758 E26.13886
G1 X112.713 Y103.803 E26.16124
G1 X113.293 Y103.942 E26.18369
G1 X113.833 Y104.165 E26.20568
G1 X114.33 Y104.47 E26.22764
G1 X114.789 Y104.86 E26.25031
G1 X122.451 Y112.515 E26.65801
G1 X122.947 Y112.937 E26.68252
G1 X123.535 Y113.294 E26.70842
G1 X124.159 Y113.55 E26.7338
G1 X124.804 Y113.701 E26.75874
G1 X125.434 Y113.75 E26.78253
G1 X128.181 Y113.751 E26.88593
G1 X128.786 Y113.798 E26.90877
G1 X129.353 Y113.934 E26.93072
G1 X129.894 Y114.158 E26.95276
G1 X130.391 Y114.463 E26.97471
G1 X130.841 Y114.845 E26.99693
G1 X131.231 Y115.301 E27.01952
G1 X131.534 Y115.795 E27.04134
G1 X131.759 Y116.335 E27.06336
G1 X131.896 Y116.907 E27.0855
G1 X131.944 Y117.504 E27.10804
G1 X131.949 Y129.484 E27.559
G1 X131.902 Y130.088 E27.58181
G1 X131.769 Y130.648 E27.60347
G1 X131.543 Y131.194 E27.62572
G1 X131.237 Y131.695 E27.64782
G1 X130.854 Y132.144 E27.67003
G1 X130.402 Y132.531 E27.69243
G1 X129.902 Y132.839 E27.71454
G1 X129.361 Y133.063 E27.73658
G1 X128.794 Y133.2 E27.75854
G1 X128.189 Y133.247 E27.78138
G1 X125.937 Y133.248 E27.86615
G1 X125.233 Y133.308 E27.89275
G1 X124.56 Y133.48 E27.91889
G1 X123.925 Y133.758 E27.94499
G1 X123.338 Y134.141 E27.97137
G1 X122.826 Y134.61 E27.99751
G1 X122.419 Y135.127 E28.02228
G1 X114.793 Y146.573 E28.54001
G1 X114.405 Y147.064 E28.56356
G1 X113.947 Y147.479 E28.58683
G1 X113.437 Y147.808 E28.60967
G1 X112.869 Y148.056 E28.633
G1 X112.284 Y148.202 E28.6557
G1 X111.654 Y148.254 E28.6795
G1 X99.962 Y148.259 E29.11962
G1 X99.333 Y148.208 E29.14337
G1 X98.749 Y148.062 E29.16603
G1 X98.179 Y147.815 E29.18941
G1 X97.67 Y147.486 E29.21223
G1 X97.211 Y147.071 E29.23552
G1 X96.822 Y146.58 E29.2591
G1 X88.688 Y134.39 E29.81074
G1 X88.415 Y133.908 E29.83159
G1 X88.212 Y133.381 E29.85285
G1 X88.095 Y132.858 E29.87303
G1 X88.054 Y132.298 E29.89416
G1 X88.047 Y116.236 E30.49878
G1 X88.087 Y115.676 E30.51991
G1 X88.204 Y115.151 E30.54016
G1 X88.4 Y114.637 E30.56087
G1 X88.665 Y114.163 E30.58131
G1 X89.005 Y113.72 E30.60233
G1 X92.964 Y109.29 E30.82598
G1 X93.336 Y108.808 E30.8489
G1 X93.643 Y108.259 E30.87257
G1 X93.869 Y107.664 E30.89653
G1 X94.001 Y107.064 E30.91966
G1 X94.044 Y106.475 E30.94189
G1 X94.032 Y80.445 E31.92173
G1 X101.527 Y80.424 E32.20386
G1 X101.536 Y99.52 E32.92269
G1 X101.589 Y100.185 E32.9478
G1 X101.752 Y100.842 E32.97328
G1 X102.014 Y101.466 E32.99876
G1 X102.342 Y101.998 E33.02228
G1 X102.78 Y102.512 E33.0477
G1 X103.291 Y102.952 E33.07309
G0 F4800 X103.461 Y103.056
;;retract;;
G1 F2400 E32.51309
G1 X104.48 Y103.553 E32.38393
G1 X105.134 Y103.71 E32.30732
G1 X105.328 Y103.725 E32.28509
G1 F2400 E32.27309
G0 F4800 X103.135 Y103.592
G0 X103.537 Y103.949
G0 X94.151 Y121.166
G0 X94.505 Y121.514
G1 F2400 E33.07309
G0 F4800 X94.397 Y121.616
;TYPE:WALL-INNER
G1 F1800 X94.676 Y121.893 E33.08927
G1 X94.934 Y122.253 E33.1075
G1 X95.121 Y122.64 E33.12518
G1 X95.239 Y123.07 E33.14354
G1 X95.28 Y123.509 E33.16168
G1 X95.242 Y123.951 E33.17994
G1 X95.124 Y124.381 E33.19829
G1 X94.96 Y124.73 E33.21416
G1 X94.715 Y125.086 E33.23194
G1 X94.42 Y125.39 E33.24938
G1 X94.051 Y125.656 E33.2681
G1 X93.647 Y125.844 E33.28644
